Game/res/assets/textures/COLD_LUT.CUBE
#Created by: Adobe Photoshop Export Color Lookup Plugin
TITLE "ceHKyFo.psd"
#LUT size
LUT_3D_SIZE 32
#data domain
DOMAIN_MIN 0.0 0.0 0.0
DOMAIN_MAX 1.0 1.0 1.0
#LUT data points
0.000000 0.000000 0.000000
0.018555 0.000000 0.000000
0.045105 0.000000 0.000000
0.075439 0.000000 0.000000
0.108002 0.000000 0.000000
0.141998 0.000000 0.000000
0.176788 0.000000 0.000000
0.212036 0.000000 0.000000
0.247284 0.000000 0.000000
0.282227 0.000000 0.000000
0.316528 0.000000 0.000000
0.350037 0.000000 0.000000
0.382446 0.000000 0.000000
0.413574 0.000000 0.000000
0.443237 0.000000 0.000000
0.471252 0.000000 0.000000
0.497437 0.000000 0.000000
0.523590 0.000000 0.000000
0.552399 0.000000 0.000000
0.583862 0.000000 0.000000
0.617676 0.000000 0.000000
0.653564 0.000000 0.000000
0.691132 0.000000 0.000000
0.729889 0.000000 0.000000
0.769318 0.000000 0.000000
0.808777 0.000000 0.000000
0.847504 0.000000 0.000000
0.884674 0.000000 0.000000
0.919434 0.000000 0.000000
0.950928 0.000000 0.000000
0.978088 0.000000 0.000000
1.000000 0.000000 0.000000
0.000000 0.067261 0.000000
0.018555 0.067261 0.000000
0.045105 0.067261 0.000000
0.075439 0.067261 0.000000
0.108002 0.067261 0.000000
0.141998 0.067261 0.000000
0.176788 0.067261 0.000000
0.212036 0.067261 0.000000
0.247284 0.067261 0.000000
0.282227 0.067261 0.000000
0.316528 0.067261 0.000000
0.350037 0.067261 0.000000
0.382446 0.067261 0.000000
0.413574 0.067261 0.000000
0.443237 0.067261 0.000000
0.471252 0.067261 0.000000
0.497437 0.067261 0.000000
0.523590 0.067261 0.000000
0.552399 0.067261 0.000000
0.583862 0.067261 0.000000
0.617676 0.067261 0.000000
0.653564 0.067261 0.000000
0.691132 0.067261 0.000000
0.729889 0.067261 0.000000
0.769318 0.067261 0.000000
0.808777 0.067261 0.000000
0.847504 0.067261 0.000000
0.884674 0.067261 0.000000
0.919434 0.067261 0.000000
0.950928 0.067261 0.000000
0.978088 0.067261 0.000000
1.000000 0.067261 0.000000
0.000000 0.123871 0.000000
0.018555 0.123871 0.000000
0.045105 0.123871 0.000000
0.075439 0.123871 0.000000
0.108002 0.123871 0.000000
0.141998 0.123871 0.000000
0.176788 0.123871 0.000000
0.212036 0.123871 0.000000
0.247284 0.123871 0.000000
0.282227 0.123871 0.000000
0.316528 0.123871 0.000000
0.350037 0.123871 0.000000
0.382446 0.123871 0.000000
0.413574 0.123871 0.000000
0.443237 0.123871 0.000000
0.471252 0.123871 0.000000
0.497437 0.123871 0.000000
0.523590 0.123871 0.000000
0.552399 0.123871 0.000000
0.583862 0.123871 0.000000
0.617676 0.123871 0.000000
0.653564 0.123871 0.000000
0.691132 0.123871 0.000000
0.729889 0.123871 0.000000
0.769318 0.123871 0.000000
0.808777 0.123871 0.000000
0.847504 0.123871 0.000000
0.884674 0.123871 0.000000
0.919434 0.123871 0.000000
0.950928 0.123871 0.000000
0.978088 0.123871 0.000000
1.000000 0.123871 0.000000
0.000000 0.175232 0.000000
0.018555 0.175232 0.000000
0.045105 0.175232 0.000000
0.075439 0.175232 0.000000
0.108002 0.175232 0.000000
0.141998 0.175232 0.000000
0.176788 0.175232 0.000000
0.212036 0.175232 0.000000
0.247284 0.175232 0.000000
0.282227 0.175232 0.000000
0.316528 0.175232 0.000000
0.350037 0.175232 0.000000
0.382446 0.175232 0.000000
0.413574 0.175232 0.000000
0.443237 0.175232 0.000000
0.471252 0.175232 0.000000
0.497437 0.175232 0.000000
0.523590 0.175232 0.000000
0.552399 0.175232 0.000000
0.583862 0.175232 0.000000
0.617676 0.175232 0.000000
0.653564 0.175232 0.000000
0.691132 0.175232 0.000000
0.729889 0.175232 0.000000
0.769318 0.175232 0.000000
0.808777 0.175232 0.000000
0.847504 0.175232 0.000000
0.884674 0.175232 0.000000
0.919434 0.175232 0.000000
0.950928 0.175232 0.000000
0.978088 0.175232 0.000000
1.000000 0.175232 0.000000
0.000000 0.222534 0.000000
0.018555 0.222534 0.000000
0.045105 0.222534 0.000000
0.075439 0.222534 0.000000
0.108002 0.222534 0.000000
0.141998 0.222534 0.000000
0.176788 0.222534 0.000000
0.212036 0.222534 0.000000
0.247284 0.222534 0.000000
0.282227 0.222534 0.000000
0.316528 0.222534 0.000000
0.350037 0.222534 0.000000
0.382446 0.222534 0.000000
0.413574 0.222534 0.000000
0.443237 0.222534 0.000000
0.471252 0.222534 0.000000
0.497437 0.222534 0.000000
0.523590 0.222534 0.000000
0.552399 0.222534 0.000000
0.583862 0.222534 0.000000
0.617676 0.222534 0.000000
0.653564 0.222534 0.000000
0.691132 0.222534 0.000000
0.729889 0.222534 0.000000
0.769318 0.222534 0.000000
0.808777 0.222534 0.000000
0.847504 0.222534 0.000000
0.884674 0.222534 0.000000
0.919434 0.222534 0.000000
0.950928 0.222534 0.000000
0.978088 0.222534 0.000000
1.000000 0.222534 0.000000
0.000000 0.266327 0.000000
0.018555 0.266327 0.000000
0.045105 0.266327 0.000000
0.075439 0.266327 0.000000
0.108002 0.266327 0.000000
0.141998 0.266327 0.000000
0.176788 0.266327 0.000000
0.212036 0.266327 0.000000
0.247284 0.266327 0.000000
0.282227 0.266327 0.000000
0.316528 0.266327 0.000000
0.350037 0.266327 0.000000
0.382446 0.266327 0.000000
0.413574 0.266327 0.000000
0.443237 0.266327 0.000000
0.471252 0.266327 0.000000
0.497437 0.266327 0.000000
0.523590 0.266327 0.000000
0.552399 0.266327 0.000000
0.583862 0.266327 0.000000
0.617676 0.266327 0.000000
0.653564 0.266327 0.000000
0.691132 0.266327 0.000000
0.729889 0.266327 0.000000
0.769318 0.266327 0.000000
0.808777 0.266327 0.000000
0.847504 0.266327 0.000000
0.884674 0.266327 0.000000
0.919434 0.266327 0.000000
0.950928 0.266327 0.000000
0.978088 0.266327 0.000000
1.000000 0.266327 0.000000
0.000000 0.306915 0.000000
0.018555 0.306915 0.000000
0.045105 0.306915 0.000000
0.075439 0.306915 0.000000
0.108002 0.306915 0.000000
0.141998 0.306915 0.000000
0.176788 0.306915 0.000000
0.212036 0.306915 0.000000
0.247284 0.306915 0.000000
0.282227 0.306915 0.000000
0.316528 0.306915 0.000000
0.350037 0.306915 0.000000
0.382446 0.306915 0.000000
0.413574 0.306915 0.000000
0.443237 0.306915 0.000000
0.471252 0.306915 0.000000
0.497437 0.306915 0.000000
0.523590 0.306915 0.000000
0.552399 0.306915 0.000000
0.583862 0.306915 0.000000
0.617676 0.306915 0.000000
0.653564 0.306915 0.000000
0.691132 0.306915 0.000000
0.729889 0.306915 0.000000
0.769318 0.306915 0.000000
0.808777 0.306915 0.000000
0.847504 0.306915 0.000000
0.884674 0.306915 0.000000
0.919434 0.306915 0.000000
0.950928 0.306915 0.000000
0.978088 0.306915 0.000000
1.000000 0.306915 0.000000
0.000000 0.344574 0.000000
0.018555 0.344574 0.000000
0.045105 0.344574 0.000000
0.075439 0.344574 0.000000
0.108002 0.344574 0.000000
0.141998 0.344574 0.000000
0.176788 0.344574 0.000000
0.212036 0.344574 0.000000
0.247284 0.344574 0.000000
0.282227 0.344574 0.000000
0.316528 0.344574 0.000000
0.350037 0.344574 0.000000
0.382446 0.344574 0.000000
0.413574 0.344574 0.000000
0.443237 0.344574 0.000000
0.471252 0.344574 0.000000
0.497437 0.344574 0.000000
0.523590 0.344574 0.000000
0.552399 0.344574 0.000000
0.583862 0.344574 0.000000
0.617676 0.344574 0.000000
0.653564 0.344574 0.000000
0.691132 0.344574 0.000000
0.729889 0.344574 0.000000
0.769318 0.344574 0.000000
0.808777 0.344574 0.000000
0.847504 0.344574 0.000000
0.884674 0.344574 0.000000
0.919434 0.344574 0.000000
0.950928 0.344574 0.000000
0.978088 0.344574 0.000000
1.000000 0.344574 0.000000
0.000000 0.379486 0.000000
0.018555 0.379486 0.000000
0.045105 0.379486 0.000000
0.075439 0.379486 0.000000
0.108002 0.379486 0.000000
0.141998 0.379486 0.000000
0.176788 0.379486 0.000000
0.212036 0.379486 0.000000
0.247284 0.379486 0.000000
0.282227 0.379486 0.000000
0.316528 0.379486 0.000000
0.350037 0.379486 0.000000
0.382446 0.379486 0.000000
0.413574 0.379486 0.000000
0.443237 0.379486 0.000000
0.471252 0.379486 0.000000
0.497437 0.379486 0.000000
0.523590 0.379486 0.000000
0.552399 0.379486 0.000000
0.583862 0.379486 0.000000
0.617676 0.379486 0.000000
0.653564 0.379486 0.000000
0.691132 0.379486 0.000000
0.729889 0.379486 0.000000
0.769318 0.379486 0.000000
0.808777 0.379486 0.000000
0.847504 0.379486 0.000000
0.884674 0.379486 0.000000
0.919434 0.379486 0.000000
0.950928 0.379486 0.000000
0.978088 0.379486 0.000000
1.000000 0.379486 0.000000
0.000000 0.411743 0.000000
0.018555 0.411743 0.000000
0.045105 0.411743 0.000000
0.075439 0.411743 0.000000
0.108002 0.411743 0.000000
0.141998 0.411743 0.000000
0.176788 0.411743 0.000000
0.212036 0.411743 0.000000
0.247284 0.411743 0.000000
0.282227 0.411743 0.000000
0.316528 0.411743 0.000000
0.350037 0.411743 0.000000
0.382446 0.411743 0.000000
0.413574 0.411743 0.000000
0.443237 0.411743 0.000000
0.471252 0.411743 0.000000
0.497437 0.411743 0.000000
0.523590 0.411743 0.000000
0.552399 0.411743 0.000000
0.583862 0.411743 0.000000
0.617676 0.411743 0.000000
0.653564 0.411743 0.000000
0.691132 0.411743 0.000000
0.729889 0.411743 0.000000
0.769318 0.411743 0.000000
0.808777 0.411743 0.000000
0.847504 0.411743 0.000000
0.884674 0.411743 0.000000
0.919434 0.411743 0.000000
0.950928 0.411743 0.000000
0.978088 0.411743 0.000000
1.000000 0.411743 0.000000
0.000000 0.441498 0.000000
0.018555 0.441498 0.000000
0.045105 0.441498 0.000000
0.075439 0.441498 0.000000
0.108002 0.441498 0.000000
0.141998 0.441498 0.000000
0.176788 0.441498 0.000000
0.212036 0.441498 0.000000
0.247284 0.441498 0.000000
0.282227 0.441498 0.000000
0.316528 0.441498 0.000000
0.350037 0.441498 0.000000
0.382446 0.441498 0.000000
0.413574 0.441498 0.000000
0.443237 0.441498 0.000000
0.471252 0.441498 0.000000
0.497437 0.441498 0.000000
0.523590 0.441498 0.000000
0.552399 0.441498 0.000000
0.583862 0.441498 0.000000
0.617676 0.441498 0.000000
0.653564 0.441498 0.000000
0.691132 0.441498 0.000000
0.729889 0.441498 0.000000
0.769318 0.441498 0.000000
0.808777 0.441498 0.000000
0.847504 0.441498 0.000000
0.884674 0.441498 0.000000
0.919434 0.441498 0.000000
0.950928 0.441498 0.000000
0.978088 0.441498 0.000000
1.000000 0.441498 0.000000
0.000000 0.468811 0.000000
0.018555 0.468811 0.000000
0.045105 0.468811 0.000000
0.075439 0.468811 0.000000
0.108002 0.468811 0.000000
0.141998 0.468811 0.000000
0.176788 0.468811 0.000000
0.212036 0.468811 0.000000
0.247284 0.468811 0.000000
0.282227 0.468811 0.000000
0.316528 0.468811 0.000000
0.350037 0.468811 0.000000
0.382446 0.468811 0.000000
0.413574 0.468811 0.000000
0.443237 0.468811 0.000000
0.471252 0.468811 0.000000
0.497437 0.468811 0.000000
0.523590 0.468811 0.000000
0.552399 0.468811 0.000000
0.583862 0.468811 0.000000
0.617676 0.468811 0.000000
0.653564 0.468811 0.000000
0.691132 0.468811 0.000000
0.729889 0.468811 0.000000
0.769318 0.468811 0.000000
0.808777 0.468811 0.000000
0.847504 0.468811 0.000000
0.884674 0.468811 0.000000
0.919434 0.468811 0.000000
0.950928 0.468811 0.000000
0.978088 0.468811 0.000000
1.000000 0.468811 0.000000
0.000000 0.493774 0.000000
0.018555 0.493774 0.000000
0.045105 0.493774 0.000000
0.075439 0.493774 0.000000
0.108002 0.493774 0.000000
0.141998 0.493774 0.000000
0.176788 0.493774 0.000000
0.212036 0.493774 0.000000
0.247284 0.493774 0.000000
0.282227 0.493774 0.000000
0.316528 0.493774 0.000000
0.350037 0.493774 0.000000
0.382446 0.493774 0.000000
0.413574 0.493774 0.000000
0.443237 0.493774 0.000000
0.471252 0.493774 0.000000
0.497437 0.493774 0.000000
0.523590 0.493774 0.000000
0.552399 0.493774 0.000000
0.583862 0.493774 0.000000
0.617676 0.493774 0.000000
0.653564 0.493774 0.000000
0.691132 0.493774 0.000000
0.729889 0.493774 0.000000
0.769318 0.493774 0.000000
0.808777 0.493774 0.000000
0.847504 0.493774 0.000000
0.884674 0.493774 0.000000
0.919434 0.493774 0.000000
0.950928 0.493774 0.000000
0.978088 0.493774 0.000000
1.000000 0.493774 0.000000
0.000000 0.517517 0.000000
0.018555 0.517517 0.000000
0.045105 0.517517 0.000000
0.075439 0.517517 0.000000
0.108002 0.517517 0.000000
0.141998 0.517517 0.000000
0.176788 0.517517 0.000000
0.212036 0.517517 0.000000
0.247284 0.517517 0.000000
0.282227 0.517517 0.000000
0.316528 0.517517 0.000000
0.350037 0.517517 0.000000
0.382446 0.517517 0.000000
0.413574 0.517517 0.000000
0.443237 0.517517 0.000000
0.471252 0.517517 0.000000
0.497437 0.517517 0.000000
0.523590 0.517517 0.000000
0.552399 0.517517 0.000000
0.583862 0.517517 0.000000
0.617676 0.517517 0.000000
0.653564 0.517517 0.000000
0.691132 0.517517 0.000000
0.729889 0.517517 0.000000
0.769318 0.517517 0.000000
0.808777 0.517517 0.000000
0.847504 0.517517 0.000000
0.884674 0.517517 0.000000
0.919434 0.517517 0.000000
0.950928 0.517517 0.000000
0.978088 0.517517 0.000000
1.000000 0.517517 0.000000
0.000000 0.542877 0.000000
0.018555 0.542877 0.000000
0.045105 0.542877 0.000000
0.075439 0.542877 0.000000
0.108002 0.542877 0.000000
0.141998 0.542877 0.000000
0.176788 0.542877 0.000000
0.212036 0.542877 0.000000
0.247284 0.542877 0.000000
0.282227 0.542877 0.000000
0.316528 0.542877 0.000000
0.350037 0.542877 0.000000
0.382446 0.542877 0.000000
0.413574 0.542877 0.000000
0.443237 0.542877 0.000000
0.471252 0.542877 0.000000
0.497437 0.542877 0.000000
0.523590 0.542877 0.000000
0.552399 0.542877 0.000000
0.583862 0.542877 0.000000
0.617676 0.542877 0.000000
0.653564 0.542877 0.000000
0.691132 0.542877 0.000000
0.729889 0.542877 0.000000
0.769318 0.542877 0.000000
0.808777 0.542877 0.000000
0.847504 0.542877 0.000000
0.884674 0.542877 0.000000
0.919434 0.542877 0.000000
0.950928 0.542877 0.000000
0.978088 0.542877 0.000000
1.000000 0.542877 0.000000
0.000000 0.569794 0.000000
0.018555 0.569794 0.000000
0.045105 0.569794 0.000000
0.075439 0.569794 0.000000
0.108002 0.569794 0.000000
0.141998 0.569794 0.000000
0.176788 0.569794 0.000000
0.212036 0.569794 0.000000
0.247284 0.569794 0.000000
0.282227 0.569794 0.000000
0.316528 0.569794 0.000000
0.350037 0.569794 0.000000
0.382446 0.569794 0.000000
0.413574 0.569794 0.000000
0.443237 0.569794 0.000000
0.471252 0.569794 0.000000
0.497437 0.569794 0.000000
0.523590 0.569794 0.000000
0.552399 0.569794 0.000000
0.583862 0.569794 0.000000
0.617676 0.569794 0.000000
0.653564 0.569794 0.000000
0.691132 0.569794 0.000000
0.729889 0.569794 0.000000
0.769318 0.569794 0.000000
0.808777 0.569794 0.000000
0.847504 0.569794 0.000000
0.884674 0.569794 0.000000
0.919434 0.569794 0.000000
0.950928 0.569794 0.000000
0.978088 0.569794 0.000000
1.000000 0.569794 0.000000
0.000000 0.598083 0.000000
0.018555 0.598083 0.000000
0.045105 0.598083 0.000000
0.075439 0.598083 0.000000
0.108002 0.598083 0.000000
0.141998 0.598083 0.000000
0.176788 0.598083 0.000000
0.212036 0.598083 0.000000
0.247284 0.598083 0.000000
0.282227 0.598083 0.000000
0.316528 0.598083 0.000000
0.350037 0.598083 0.000000
0.382446 0.598083 0.000000
0.413574 0.598083 0.000000
0.443237 0.598083 0.000000
0.471252 0.598083 0.000000
0.497437 0.598083 0.000000
0.523590 0.598083 0.000000
0.552399 0.598083 0.000000
0.583862 0.598083 0.000000
0.617676 0.598083 0.000000
0.653564 0.598083 0.000000
0.691132 0.598083 0.000000
0.729889 0.598083 0.000000
0.769318 0.598083 0.000000
0.808777 0.598083 0.000000
0.847504 0.598083 0.000000
0.884674 0.598083 0.000000
0.919434 0.598083 0.000000
0.950928 0.598083 0.000000
0.978088 0.598083 0.000000
1.000000 0.598083 0.000000
0.000000 0.627502 0.000000
0.018555 0.627502 0.000000
0.045105 0.627502 0.000000
0.075439 0.627502 0.000000
0.108002 0.627502 0.000000
0.141998 0.627502 0.000000
0.176788 0.627502 0.000000
0.212036 0.627502 0.000000
0.247284 0.627502 0.000000
0.282227 0.627502 0.000000
0.316528 0.627502 0.000000
0.350037 0.627502 0.000000
0.382446 0.627502 0.000000
0.413574 0.627502 0.000000
0.443237 0.627502 0.000000
0.471252 0.627502 0.000000
0.497437 0.627502 0.000000
0.523590 0.627502 0.000000
0.552399 0.627502 0.000000
0.583862 0.627502 0.000000
0.617676 0.627502 0.000000
0.653564 0.627502 0.000000
0.691132 0.627502 0.000000
0.729889 0.627502 0.000000
0.769318 0.627502 0.000000
0.808777 0.627502 0.000000
0.847504 0.627502 0.000000
0.884674 0.627502 0.000000
0.919434 0.627502 0.000000
0.950928 0.627502 0.000000
0.978088 0.627502 0.000000
1.000000 0.627502 0.000000
0.000000 0.657806 0.000000
0.018555 0.657806 0.000000
0.045105 0.657806 0.000000
0.075439 0.657806 0.000000
0.108002 0.657806 0.000000
0.141998 0.657806 0.000000
0.176788 0.657806 0.000000
0.212036 0.657806 0.000000
0.247284 0.657806 0.000000
0.282227 0.657806 0.000000
0.316528 0.657806 0.000000
0.350037 0.657806 0.000000
0.382446 0.657806 0.000000
0.413574 0.657806 0.000000
0.443237 0.657806 0.000000
0.471252 0.657806 0.000000
0.497437 0.657806 0.000000
0.523590 0.657806 0.000000
0.552399 0.657806 0.000000
0.583862 0.657806 0.000000
0.617676 0.657806 0.000000
0.653564 0.657806 0.000000
0.691132 0.657806 0.000000
0.729889 0.657806 0.000000
0.769318 0.657806 0.000000
0.808777 0.657806 0.000000
0.847504 0.657806 0.000000
0.884674 0.657806 0.000000
0.919434 0.657806 0.000000
0.950928 0.657806 0.000000
0.978088 0.657806 0.000000
1.000000 0.657806 0.000000
0.000000 0.688721 0.000000
0.018555 0.688721 0.000000
0.045105 0.688721 0.000000
0.075439 0.688721 0.000000
0.108002 0.688721 0.000000
0.141998 0.688721 0.000000
0.176788 0.688721 0.000000
0.212036 0.688721 0.000000
0.247284 0.688721 0.000000
0.282227 0.688721 0.000000
0.316528 0.688721 0.000000
0.350037 0.688721 0.000000
0.382446 0.688721 0.000000
0.413574 0.688721 0.000000
0.443237 0.688721 0.000000
0.471252 0.688721 0.000000
0.497437 0.688721 0.000000
0.523590 0.688721 0.000000
0.552399 0.688721 0.000000
0.583862 0.688721 0.000000
0.617676 0.688721 0.000000
0.653564 0.688721 0.000000
0.691132 0.688721 0.000000
0.729889 0.688721 0.000000
0.769318 0.688721 0.000000
0.808777 0.688721 0.000000
0.847504 0.688721 0.000000
0.884674 0.688721 0.000000
0.919434 0.688721 0.000000
0.950928 0.688721 0.000000
0.978088 0.688721 0.000000
1.000000 0.688721 0.000000
0.000000 0.719971 0.000000
0.018555 0.719971 0.000000
0.045105 0.719971 0.000000
0.075439 0.719971 0.000000
0.108002 0.719971 0.000000
0.141998 0.719971 0.000000
0.176788 0.719971 0.000000
0.212036 0.719971 0.000000
0.247284 0.719971 0.000000
0.282227 0.719971 0.000000
0.316528 0.719971 0.000000
0.350037 0.719971 0.000000
0.382446 0.719971 0.000000
0.413574 0.719971 0.000000
0.443237 0.719971 0.000000
0.471252 0.719971 0.000000
0.497437 0.719971 0.000000
0.523590 0.719971 0.000000
0.552399 0.719971 0.000000
0.583862 0.719971 0.000000
0.617676 0.719971 0.000000
0.653564 0.719971 0.000000
0.691132 0.719971 0.000000
0.729889 0.719971 0.000000
0.769318 0.719971 0.000000
0.808777 0.719971 0.000000
0.847504 0.719971 0.000000
0.884674 0.719971 0.000000
0.919434 0.719971 0.000000
0.950928 0.719971 0.000000
0.978088 0.719971 0.000000
1.000000 0.719971 0.000000
0.000000 0.751282 0.000000
0.018555 0.751282 0.000000
0.045105 0.751282 0.000000
0.075439 0.751282 0.000000
0.108002 0.751282 0.000000
0.141998 0.751282 0.000000
0.176788 0.751282 0.000000
0.212036 0.751282 0.000000
0.247284 0.751282 0.000000
0.282227 0.751282 0.000000
0.316528 0.751282 0.000000
0.350037 0.751282 0.000000
0.382446 0.751282 0.000000
0.413574 0.751282 0.000000
0.443237 0.751282 0.000000
0.471252 0.751282 0.000000
0.497437 0.751282 0.000000
0.523590 0.751282 0.000000
0.552399 0.751282 0.000000
0.583862 0.751282 0.000000
0.617676 0.751282 0.000000
0.653564 0.751282 0.000000
0.691132 0.751282 0.000000
0.729889 0.751282 0.000000
0.769318 0.751282 0.000000
0.808777 0.751282 0.000000
0.847504 0.751282 0.000000
0.884674 0.751282 0.000000
0.919434 0.751282 0.000000
0.950928 0.751282 0.000000
0.978088 0.751282 0.000000
1.000000 0.751282 0.000000
0.000000 0.782379 0.000000
0.018555 0.782379 0.000000
0.045105 0.782379 0.000000
0.075439 0.782379 0.000000
0.108002 0.782379 0.000000
0.141998 0.782379 0.000000
0.176788 0.782379 0.000000
0.212036 0.782379 0.000000
0.247284 0.782379 0.000000
0.282227 0.782379 0.000000
0.316528 0.782379 0.000000
0.350037 0.782379 0.000000
0.382446 0.782379 0.000000
0.413574 0.782379 0.000000
0.443237 0.782379 0.000000
0.471252 0.782379 0.000000
0.497437 0.782379 0.000000
0.523590 0.782379 0.000000
0.552399 0.782379 0.000000
0.583862 0.782379 0.000000
0.617676 0.782379 0.000000
0.653564 0.782379 0.000000
0.691132 0.782379 0.000000
0.729889 0.782379 0.000000
0.769318 0.782379 0.000000
0.808777 0.782379 0.000000
0.847504 0.782379 0.000000
0.884674 0.782379 0.000000
0.919434 0.782379 0.000000
0.950928 0.782379 0.000000
0.978088 0.782379 0.000000
1.000000 0.782379 0.000000
0.000000 0.812958 0.000000
0.018555 0.812958 0.000000
0.045105 0.812958 0.000000
0.075439 0.812958 0.000000
0.108002 0.812958 0.000000
0.141998 0.812958 0.000000
0.176788 0.812958 0.000000
0.212036 0.812958 0.000000
0.247284 0.812958 0.000000
0.282227 0.812958 0.000000
0.316528 0.812958 0.000000
0.350037 0.812958 0.000000
0.382446 0.812958 0.000000
0.413574 0.812958 0.000000
0.443237 0.812958 0.000000
0.471252 0.812958 0.000000
0.497437 0.812958 0.000000
0.523590 0.812958 0.000000
0.552399 0.812958 0.000000
0.583862 0.812958 0.000000
0.617676 0.812958 0.000000
0.653564 0.812958 0.000000
0.691132 0.812958 0.000000
0.729889 0.812958 0.000000
0.769318 0.812958 0.000000
0.808777 0.812958 0.000000
0.847504 0.812958 0.000000
0.884674 0.812958 0.000000
0.919434 0.812958 0.000000
0.950928 0.812958 0.000000
0.978088 0.812958 0.000000
1.000000 0.812958 0.000000
0.000000 0.842621 0.000000
0.018555 0.842621 0.000000
0.045105 0.842621 0.000000
0.075439 0.842621 0.000000
0.108002 0.842621 0.000000
0.141998 0.842621 0.000000
0.176788 0.842621 0.000000
0.212036 0.842621 0.000000
0.247284 0.842621 0.000000
0.282227 0.842621 0.000000
0.316528 0.842621 0.000000
0.350037 0.842621 0.000000
0.382446 0.842621 0.000000
0.413574 0.842621 0.000000
0.443237 0.842621 0.000000
0.471252 0.842621 0.000000
0.497437 0.842621 0.000000
0.523590 0.842621 0.000000
0.552399 0.842621 0.000000
0.583862 0.842621 0.000000
0.617676 0.842621 0.000000
0.653564 0.842621 0.000000
0.691132 0.842621 0.000000
0.729889 0.842621 0.000000
0.769318 0.842621 0.000000
0.808777 0.842621 0.000000
0.847504 0.842621 0.000000
0.884674 0.842621 0.000000
0.919434 0.842621 0.000000
0.950928 0.842621 0.000000
0.978088 0.842621 0.000000
1.000000 0.842621 0.000000
0.000000 0.871155 0.000000
0.018555 0.871155 0.000000
0.045105 0.871155 0.000000
0.075439 0.871155 0.000000
0.108002 0.871155 0.000000
0.141998 0.871155 0.000000
0.176788 0.871155 0.000000
0.212036 0.871155 0.000000
0.247284 0.871155 0.000000
0.282227 0.871155 0.000000
0.316528 0.871155 0.000000
0.350037 0.871155 0.000000
0.382446 0.871155 0.000000
0.413574 0.871155 0.000000
0.443237 0.871155 0.000000
0.471252 0.871155 0.000000
0.497437 0.871155 0.000000
0.523590 0.871155 0.000000
0.552399 0.871155 0.000000
0.583862 0.871155 0.000000
0.617676 0.871155 0.000000
0.653564 0.871155 0.000000
0.691132 0.871155 0.000000
0.729889 0.871155 0.000000
0.769318 0.871155 0.000000
0.808777 0.871155 0.000000
0.847504 0.871155 0.000000
0.884674 0.871155 0.000000
0.919434 0.871155 0.000000
0.950928 0.871155 0.000000
0.978088 0.871155 0.000000
1.000000 0.871155 0.000000
0.000000 0.898132 0.000000
0.018555 0.898132 0.000000
0.045105 0.898132 0.000000
0.075439 0.898132 0.000000
0.108002 0.898132 0.000000
0.141998 0.898132 0.000000
0.176788 0.898132 0.000000
0.212036 0.898132 0.000000
0.247284 0.898132 0.000000
0.282227 0.898132 0.000000
0.316528 0.898132 0.000000
0.350037 0.898132 0.000000
0.382446 0.898132 0.000000
0.413574 0.898132 0.000000
0.443237 0.898132 0.000000
0.471252 0.898132 0.000000
0.497437 0.898132 0.000000
0.523590 0.898132 0.000000
0.552399 0.898132 0.000000
0.583862 0.898132 0.000000
0.617676 0.898132 0.000000
0.653564 0.898132 0.000000
0.691132 0.898132 0.000000
0.729889 0.898132 0.000000
0.769318 0.898132 0.000000
0.808777 0.898132 0.000000
0.847504 0.898132 0.000000
0.884674 0.898132 0.000000
0.919434 0.898132 0.000000
0.950928 0.898132 0.000000
0.978088 0.898132 0.000000
1.000000 0.898132 0.000000
0.000000 0.923340 0.000000
0.018555 0.923340 0.000000
0.045105 0.923340 0.000000
0.075439 0.923340 0.000000
0.108002 0.923340 0.000000
0.141998 0.923340 0.000000
0.176788 0.923340 0.000000
0.212036 0.923340 0.000000
0.247284 0.923340 0.000000
0.282227 0.923340 0.000000
0.316528 0.923340 0.000000
0.350037 0.923340 0.000000
0.382446 0.923340 0.000000
0.413574 0.923340 0.000000
0.443237 0.923340 0.000000
0.471252 0.923340 0.000000
0.497437 0.923340 0.000000
0.523590 0.923340 0.000000
