Game/res/assets/textures/COLD_LUT.CUBE
#Created by: Adobe Photoshop Export Color Lookup Plugin
TITLE "ceHKyFo.psd"
#LUT size
LUT_3D_SIZE 5
#data domain
#LUT data points
DOMAIN_MIN 0.000000 0.000000 0.000000
DOMAIN_MAX 0.903226 0.903226 0.903226
0.000000 0.000000 0.000000
0.212036 0.000000 0.000000
0.443237 0.000000 0.000000
0.653564 0.000000 0.000000
0.919434 0.000000 0.000000
0.000000 0.344574 0.000000
0.212036 0.344574 0.000000
0.443237 0.344574 0.000000
0.653564 0.344574 0.000000
0.919434 0.344574 0.000000
0.000000 0.542877 0.000000
0.212036 0.542877 0.000000
0.443237 0.542877 0.000000
0.653564 0.542877 0.000000
0.919434 0.542877 0.000000
0.000000 0.751282 0.000000
0.212036 0.751282 0.000000
0.443237 0.751282 0.000000
0.653564 0.751282 0.000000
0.919434 0.751282 0.000000
0.000000 0.946411 0.000000
0.212036 0.946411 0.000000
0.443237 0.946411 0.000000
0.653564 0.946411 0.000000
0.919434 0.946411 0.000000
0.000000 0.000000 0.406036
0.212036 0.000000 0.406036
0.443237 0.000000 0.406036
0.653564 0.000000 0.406036
0.919434 0.000000 0.406036
0.000000 0.344574 0.406036
0.212036 0.344574 0.406036
0.443237 0.344574 0.406036
0.653564 0.344574 0.406036
0.919434 0.344574 0.406036
0.000000 0.542877 0.406036
0.212036 0.542877 0.406036
0.443237 0.542877 0.406036
0.653564 0.542877 0.406036
0.919434 0.542877 0.406036
0.000000 0.751282 0.406036
0.212036 0.751282 0.406036
0.443237 0.751282 0.406036
0.653564 0.751282 0.406036
0.919434 0.751282 0.406036
0.000000 0.946411 0.406036
0.212036 0.946411 0.406036
0.443237 0.946411 0.406036
0.653564 0.946411 0.406036
0.919434 0.946411 0.406036
0.000000 0.000000 0.593323
0.212036 0.000000 0.593323
0.443237 0.000000 0.593323
0.653564 0.000000 0.593323
0.919434 0.000000 0.593323
0.000000 0.344574 0.593323
0.212036 0.344574 0.593323
0.443237 0.344574 0.593323
0.653564 0.344574 0.593323
0.919434 0.344574 0.593323
0.000000 0.542877 0.593323
0.212036 0.542877 0.593323
0.443237 0.542877 0.593323
0.653564 0.542877 0.593323
0.919434 0.542877 0.593323
0.000000 0.751282 0.593323
0.212036 0.751282 0.593323
0.443237 0.751282 0.593323
0.653564 0.751282 0.593323
0.919434 0.751282 0.593323
0.000000 0.946411 0.593323
0.212036 0.946411 0.593323
0.443237 0.946411 0.593323
0.653564 0.946411 0.593323
0.919434 0.946411 0.593323
0.000000 0.000000 0.791840
0.212036 0.000000 0.791840
0.443237 0.000000 0.791840
0.653564 0.000000 0.791840
0.919434 0.000000 0.791840
0.000000 0.344574 0.791840
0.212036 0.344574 0.791840
0.443237 0.344574 0.791840
0.653564 0.344574 0.791840
0.919434 0.344574 0.791840
0.000000 0.542877 0.791840
0.212036 0.542877 0.791840
0.443237 0.542877 0.791840
0.653564 0.542877 0.791840
0.919434 0.542877 0.791840
0.000000 0.751282 0.791840
0.212036 0.751282 0.791840
0.443237 0.751282 0.791840
0.653564 0.751282 0.791840
0.919434 0.751282 0.791840
0.000000 0.946411 0.791840
0.212036 0.946411 0.791840
0.443237 0.946411 0.791840
0.653564 0.946411 0.791840
0.919434 0.946411 0.791840
0.000000 0.000000 0.955933
0.212036 0.000000 0.955933
0.443237 0.000000 0.955933
0.653564 0.000000 0.955933
0.919434 0.000000 0.955933
0.000000 0.344574 0.955933
0.212036 0.344574 0.955933
0.443237 0.344574 0.955933
0.653564 0.344574 0.955933
0.919434 0.344574 0.955933
0.000000 0.542877 0.955933
0.212036 0.542877 0.955933
0.443237 0.542877 0.955933
0.653564 0.542877 0.955933
0.919434 0.542877 0.955933
0.000000 0.751282 0.955933
0.212036 0.751282 0.955933
0.443237 0.751282 0.955933
0.653564 0.751282 0.955933
0.919434 0.751282 0.955933
0.000000 0.946411 0.955933
0.212036 0.946411 0.955933
0.443237 0.946411 0.955933
0.653564 0.946411 0.955933
0.919434 0.946411 0.955933
