Game/res/assets/textures/COLD_LUT.CUBE
#Created by: Adobe Photoshop Export Color Lookup Plugin
TITLE "ceHKyFo.psd"
#LUT size
LUT_3D_SIZE 8
#data domain
#LUT data points
DOMAIN_MIN 0.000000 0.000000 0.000000
DOMAIN_MAX 0.903226 0.903226 0.903226
0.000000 0.000000 0.000000
0.108002 0.000000 0.000000
0.247284 0.000000 0.000000
0.382446 0.000000 0.000000
0.497437 0.000000 0.000000
0.617676 0.000000 0.000000
0.769318 0.000000 0.000000
0.919434 0.000000 0.000000
0.000000 0.222534 0.000000
0.108002 0.222534 0.000000
0.247284 0.222534 0.000000
0.382446 0.222534 0.000000
0.497437 0.222534 0.000000
0.617676 0.222534 0.000000
0.769318 0.222534 0.000000
0.919434 0.222534 0.000000
0.000000 0.379486 0.000000
0.108002 0.379486 0.000000
0.247284 0.379486 0.000000
0.382446 0.379486 0.000000
0.497437 0.379486 0.000000
0.617676 0.379486 0.000000
0.769318 0.379486 0.000000
0.919434 0.379486 0.000000
0.000000 0.493774 0.000000
0.108002 0.493774 0.000000
0.247284 0.493774 0.000000
0.382446 0.493774 0.000000
0.497437 0.493774 0.000000
0.617676 0.493774 0.000000
0.769318 0.493774 0.000000
0.919434 0.493774 0.000000
0.000000 0.598083 0.000000
0.108002 0.598083 0.000000
0.247284 0.598083 0.000000
0.382446 0.598083 0.000000
0.497437 0.598083 0.000000
0.617676 0.598083 0.000000
0.769318 0.598083 0.000000
0.919434 0.598083 0.000000
0.000000 0.719971 0.000000
0.108002 0.719971 0.000000
0.247284 0.719971 0.000000
0.382446 0.719971 0.000000
0.497437 0.719971 0.000000
0.617676 0.719971 0.000000
0.769318 0.719971 0.000000
0.919434 0.719971 0.000000
0.000000 0.842621 0.000000
0.108002 0.842621 0.000000
0.247284 0.842621 0.000000
0.382446 0.842621 0.000000
0.497437 0.842621 0.000000
0.617676 0.842621 0.000000
0.769318 0.842621 0.000000
0.919434 0.842621 0.000000
0.000000 0.946411 0.000000
0.108002 0.946411 0.000000
0.247284 0.946411 0.000000
0.382446 0.946411 0.000000
0.497437 0.946411 0.000000
0.617676 0.946411 0.000000
0.769318 0.946411 0.000000
0.919434 0.946411 0.000000
0.000000 0.000000 0.286774
0.108002 0.000000 0.286774
0.247284 0.000000 0.286774
0.382446 0.000000 0.286774
0.497437 0.000000 0.286774
0.617676 0.000000 0.286774
0.769318 0.000000 0.286774
0.919434 0.000000 0.286774
0.000000 0.222534 0.286774
0.108002 0.222534 0.286774
0.247284 0.222534 0.286774
0.382446 0.222534 0.286774
0.497437 0.222534 0.286774
0.617676 0.222534 0.286774
0.769318 0.222534 0.286774
0.919434 0.222534 0.286774
0.000000 0.379486 0.286774
0.108002 0.379486 0.286774
0.247284 0.379486 0.286774
0.382446 0.379486 0.286774
0.497437 0.379486 0.286774
0.617676 0.379486 0.286774
0.769318 0.379486 0.286774
0.919434 0.379486 0.286774
0.000000 0.493774 0.286774
0.108002 0.493774 0.286774
0.247284 0.493774 0.286774
0.382446 0.493774 0.286774
0.497437 0.493774 0.286774
0.617676 0.493774 0.286774
0.769318 0.493774 0.286774
0.919434 0.493774 0.286774
0.000000 0.598083 0.286774
0.108002 0.598083 0.286774
0.247284 0.598083 0.286774
0.382446 0.598083 0.286774
0.497437 0.598083 0.286774
0.617676 0.598083 0.286774
0.769318 0.598083 0.286774
0.919434 0.598083 0.286774
0.000000 0.719971 0.286774
0.108002 0.719971 0.286774
0.247284 0.719971 0.286774
0.382446 0.719971 0.286774
0.497437 0.719971 0.286774
0.617676 0.719971 0.286774
0.769318 0.719971 0.286774
0.919434 0.719971 0.286774
0.000000 0.842621 0.286774
0.108002 0.842621 0.286774
0.247284 0.842621 0.286774
0.382446 0.842621 0.286774
0.497437 0.842621 0.286774
0.617676 0.842621 0.286774
0.769318 0.842621 0.286774
0.919434 0.842621 0.286774
0.000000 0.946411 0.286774
0.108002 0.946411 0.286774
0.247284 0.946411 0.286774
0.382446 0.946411 0.286774
0.497437 0.946411 0.286774
0.617676 0.946411 0.286774
0.769318 0.946411 0.286774
0.919434 0.946411 0.286774
0.000000 0.000000 0.437775
0.108002 0.000000 0.437775
0.247284 0.000000 0.437775
0.382446 0.000000 0.437775
0.497437 0.000000 0.437775
0.617676 0.000000 0.437775
0.769318 0.000000 0.437775
0.919434 0.000000 0.437775
0.000000 0.222534 0.437775
0.108002 0.222534 0.437775
0.247284 0.222534 0.437775
0.382446 0.222534 0.437775
0.497437 0.222534 0.437775
0.617676 0.222534 0.437775
0.769318 0.222534 0.437775
0.919434 0.222534 0.437775
0.000000 0.379486 0.437775
0.108002 0.379486 0.437775
0.247284 0.379486 0.437775
0.382446 0.379486 0.437775
0.497437 0.379486 0.437775
0.617676 0.379486 0.437775
0.769318 0.379486 0.437775
0.919434 0.379486 0.437775
0.000000 0.493774 0.437775
0.108002 0.493774 0.437775
0.247284 0.493774 0.437775
0.382446 0.493774 0.437775
0.497437 0.493774 0.437775
0.617676 0.493774 0.437775
0.769318 0.493774 0.437775
0.919434 0.493774 0.437775
0.000000 0.598083 0.437775
0.108002 0.598083 0.437775
0.247284 0.598083 0.437775
0.382446 0.598083 0.437775
0.497437 0.598083 0.437775
0.617676 0.598083 0.437775
0.769318 0.598083 0.437775
0.919434 0.598083 0.437775
0.000000 0.719971 0.437775
0.108002 0.719971 0.437775
0.247284 0.719971 0.437775
0.382446 0.719971 0.437775
0.497437 0.719971 0.437775
0.617676 0.719971 0.437775
0.769318 0.719971 0.437775
0.919434 0.719971 0.437775
0.000000 0.842621 0.437775
0.108002 0.842621 0.437775
0.247284 0.842621 0.437775
0.382446 0.842621 0.437775
0.497437 0.842621 0.437775
0.617676 0.842621 0.437775
0.769318 0.842621 0.437775
0.919434 0.842621 0.437775
0.000000 0.946411 0.437775
0.108002 0.946411 0.437775
0.247284 0.946411 0.437775
0.382446 0.946411 0.437775
0.497437 0.946411 0.437775
0.617676 0.946411 0.437775
0.769318 0.946411 0.437775
0.919434 0.946411 0.437775
0.000000 0.000000 0.540344
0.108002 0.000000 0.540344
0.247284 0.000000 0.540344
0.382446 0.000000 0.540344
0.497437 0.000000 0.540344
0.617676 0.000000 0.540344
0.769318 0.000000 0.540344
0.919434 0.000000 0.540344
0.000000 0.222534 0.540344
0.108002 0.222534 0.540344
0.247284 0.222534 0.540344
0.382446 0.222534 0.540344
0.497437 0.222534 0.540344
0.617676 0.222534 0.540344
0.769318 0.222534 0.540344
0.919434 0.222534 0.540344
0.000000 0.379486 0.540344
0.108002 0.379486 0.540344
0.247284 0.379486 0.540344
0.382446 0.379486 0.540344
0.497437 0.379486 0.540344
0.617676 0.379486 0.540344
0.769318 0.379486 0.540344
0.919434 0.379486 0.540344
0.000000 0.493774 0.540344
0.108002 0.493774 0.540344
0.247284 0.493774 0.540344
0.382446 0.493774 0.540344
0.497437 0.493774 0.540344
0.617676 0.493774 0.540344
0.769318 0.493774 0.540344
0.919434 0.493774 0.540344
0.000000 0.598083 0.540344
0.108002 0.598083 0.540344
0.247284 0.598083 0.540344
0.382446 0.598083 0.540344
0.497437 0.598083 0.540344
0.617676 0.598083 0.540344
0.769318 0.598083 0.540344
0.919434 0.598083 0.540344
0.000000 0.719971 0.540344
0.108002 0.719971 0.540344
0.247284 0.719971 0.540344
0.382446 0.719971 0.540344
0.497437 0.719971 0.540344
0.617676 0.719971 0.540344
0.769318 0.719971 0.540344
0.919434 0.719971 0.540344
0.000000 0.842621 0.540344
0.108002 0.842621 0.540344
0.247284 0.842621 0.540344
0.382446 0.842621 0.540344
0.497437 0.842621 0.540344
0.617676 0.842621 0.540344
0.769318 0.842621 0.540344
0.919434 0.842621 0.540344
0.000000 0.946411 0.540344
0.108002 0.946411 0.540344
0.247284 0.946411 0.540344
0.382446 0.946411 0.540344
0.497437 0.946411 0.540344
0.617676 0.946411 0.540344
0.769318 0.946411 0.540344
0.919434 0.946411 0.540344
0.000000 0.000000 0.649445
0.108002 0.000000 0.649445
0.247284 0.000000 0.649445
0.382446 0.000000 0.649445
0.497437 0.000000 0.649445
0.617676 0.000000 0.649445
0.769318 0.000000 0.649445
0.919434 0.000000 0.649445
0.000000 0.222534 0.649445
0.108002 0.222534 0.649445
0.247284 0.222534 0.649445
0.382446 0.222534 0.649445
0.497437 0.222534 0.649445
0.617676 0.222534 0.649445
0.769318 0.222534 0.649445
0.919434 0.222534 0.649445
0.000000 0.379486 0.649445
0.108002 0.379486 0.649445
0.247284 0.379486 0.649445
0.382446 0.379486 0.649445
0.497437 0.379486 0.649445
0.617676 0.379486 0.649445
0.769318 0.379486 0.649445
0.919434 0.379486 0.649445
0.000000 0.493774 0.649445
0.108002 0.493774 0.649445
0.247284 0.493774 0.649445
0.382446 0.493774 0.649445
0.497437 0.493774 0.649445
0.617676 0.493774 0.649445
0.769318 0.493774 0.649445
0.919434 0.493774 0.649445
0.000000 0.598083 0.649445
0.108002 0.598083 0.649445
0.247284 0.598083 0.649445
0.382446 0.598083 0.649445
0.497437 0.598083 0.649445
0.617676 0.598083 0.649445
0.769318 0.598083 0.649445
0.919434 0.598083 0.649445
0.000000 0.719971 0.649445
0.108002 0.719971 0.649445
0.247284 0.719971 0.649445
0.382446 0.719971 0.649445
0.497437 0.719971 0.649445
0.617676 0.719971 0.649445
0.769318 0.719971 0.649445
0.919434 0.719971 0.649445
0.000000 0.842621 0.649445
0.108002 0.842621 0.649445
0.247284 0.842621 0.649445
0.382446 0.842621 0.649445
0.497437 0.842621 0.649445
0.617676 0.842621 0.649445
0.769318 0.842621 0.649445
0.919434 0.842621 0.649445
0.000000 0.946411 0.649445
0.108002 0.946411 0.649445
0.247284 0.946411 0.649445
0.382446 0.946411 0.649445
0.497437 0.946411 0.649445
0.617676 0.946411 0.649445
0.769318 0.946411 0.649445
0.919434 0.946411 0.649445
0.000000 0.000000 0.763977
0.108002 0.000000 0.763977
0.247284 0.000000 0.763977
0.382446 0.000000 0.763977
0.497437 0.000000 0.763977
0.617676 0.000000 0.763977
0.769318 0.000000 0.763977
0.919434 0.000000 0.763977
0.000000 0.222534 0.763977
0.108002 0.222534 0.763977
0.247284 0.222534 0.763977
0.382446 0.222534 0.763977
0.497437 0.222534 0.763977
0.617676 0.222534 0.763977
0.769318 0.222534 0.763977
0.919434 0.222534 0.763977
0.000000 0.379486 0.763977
0.108002 0.379486 0.763977
0.247284 0.379486 0.763977
0.382446 0.379486 0.763977
0.497437 0.379486 0.763977
0.617676 0.379486 0.763977
0.769318 0.379486 0.763977
0.919434 0.379486 0.763977
0.000000 0.493774 0.763977
0.108002 0.493774 0.763977
0.247284 0.493774 0.763977
0.382446 0.493774 0.763977
0.497437 0.493774 0.763977
0.617676 0.493774 0.763977
0.769318 0.493774 0.763977
0.919434 0.493774 0.763977
0.000000 0.598083 0.763977
0.108002 0.598083 0.763977
0.247284 0.598083 0.763977
0.382446 0.598083 0.763977
0.497437 0.598083 0.763977
0.617676 0.598083 0.763977
0.769318 0.598083 0.763977
0.919434 0.598083 0.763977
0.000000 0.719971 0.763977
0.108002 0.719971 0.763977
0.247284 0.719971 0.763977
0.382446 0.719971 0.763977
0.497437 0.719971 0.763977
0.617676 0.719971 0.763977
0.769318 0.719971 0.763977
0.919434 0.719971 0.763977
0.000000 0.842621 0.763977
0.108002 0.842621 0.763977
0.247284 0.842621 0.763977
0.382446 0.842621 0.763977
0.497437 0.842621 0.763977
0.617676 0.842621 0.763977
0.769318 0.842621 0.763977
0.919434 0.842621 0.763977
0.000000 0.946411 0.763977
0.108002 0.946411 0.763977
0.247284 0.946411 0.763977
0.382446 0.946411 0.763977
0.497437 0.946411 0.763977
0.617676 0.946411 0.763977
0.769318 0.946411 0.763977
0.919434 0.946411 0.763977
0.000000 0.000000 0.870361
0.108002 0.000000 0.870361
0.247284 0.000000 0.870361
0.382446 0.000000 0.870361
0.497437 0.000000 0.870361
0.617676 0.000000 0.870361
0.769318 0.000000 0.870361
0.919434 0.000000 0.870361
0.000000 0.222534 0.870361
0.108002 0.222534 0.870361
0.247284 0.222534 0.870361
0.382446 0.222534 0.870361
0.497437 0.222534 0.870361
0.617676 0.222534 0.870361
0.769318 0.222534 0.870361
0.919434 0.222534 0.870361
0.000000 0.379486 0.870361
0.108002 0.379486 0.870361
0.247284 0.379486 0.870361
0.382446 0.379486 0.870361
0.497437 0.379486 0.870361
0.617676 0.379486 0.870361
0.769318 0.379486 0.870361
0.919434 0.379486 0.870361
0.000000 0.493774 0.870361
0.108002 0.493774 0.870361
0.247284 0.493774 0.870361
0.382446 0.493774 0.870361
0.497437 0.493774 0.870361
0.617676 0.493774 0.870361
0.769318 0.493774 0.870361
0.919434 0.493774 0.870361
0.000000 0.598083 0.870361
0.108002 0.598083 0.870361
0.247284 0.598083 0.870361
0.382446 0.598083 0.870361
0.497437 0.598083 0.870361
0.617676 0.598083 0.870361
0.769318 0.598083 0.870361
0.919434 0.598083 0.870361
0.000000 0.719971 0.870361
0.108002 0.719971 0.870361
0.247284 0.719971 0.870361
0.382446 0.719971 0.870361
0.497437 0.719971 0.870361
0.617676 0.719971 0.870361
0.769318 0.719971 0.870361
0.919434 0.719971 0.870361
0.000000 0.842621 0.870361
0.108002 0.842621 0.870361
0.247284 0.842621 0.870361
0.382446 0.842621 0.870361
0.497437 0.842621 0.870361
0.617676 0.842621 0.870361
0.769318 0.842621 0.870361
0.919434 0.842621 0.870361
0.000000 0.946411 0.870361
0.108002 0.946411 0.870361
0.247284 0.946411 0.870361
0.382446 0.946411 0.870361
0.497437 0.946411 0.870361
0.617676 0.946411 0.870361
0.769318 0.946411 0.870361
0.919434 0.946411 0.870361
0.000000 0.000000 0.955933
0.108002 0.000000 0.955933
0.247284 0.000000 0.955933
0.382446 0.000000 0.955933
0.497437 0.000000 0.955933
0.617676 0.000000 0.955933
0.769318 0.000000 0.955933
0.919434 0.000000 0.955933
0.000000 0.222534 0.955933
0.108002 0.222534 0.955933
0.247284 0.222534 0.955933
0.382446 0.222534 0.955933
0.497437 0.222534 0.955933
0.617676 0.222534 0.955933
0.769318 0.222534 0.955933
0.919434 0.222534 0.955933
0.000000 0.379486 0.955933
0.108002 0.379486 0.955933
0.247284 0.379486 0.955933
0.382446 0.379486 0.955933
0.497437 0.379486 0.955933
0.617676 0.379486 0.955933
0.769318 0.379486 0.955933
0.919434 0.379486 0.955933
0.000000 0.493774 0.955933
0.108002 0.493774 0.955933
0.247284 0.493774 0.955933
0.382446 0.493774 0.955933
0.497437 0.493774 0.955933
0.617676 0.493774 0.955933
0.769318 0.493774 0.955933
0.919434 0.493774 0.955933
0.000000 0.598083 0.955933
0.108002 0.598083 0.955933
0.247284 0.598083 0.955933
0.382446 0.598083 0.955933
0.497437 0.598083 0.955933
0.617676 0.598083 0.955933
0.769318 0.598083 0.955933
0.919434 0.598083 0.955933
0.000000 0.719971 0.955933
0.108002 0.719971 0.955933
0.247284 0.719971 0.955933
0.382446 0.719971 0.955933
0.497437 0.719971 0.955933
0.617676 0.719971 0.955933
0.769318 0.719971 0.955933
0.919434 0.719971 0.955933
0.000000 0.842621 0.955933
0.108002 0.842621 0.955933
0.247284 0.842621 0.955933
0.382446 0.842621 0.955933
0.497437 0.842621 0.955933
0.617676 0.842621 0.955933
0.769318 0.842621 0.955933
0.919434 0.842621 0.955933
0.000000 0.946411 0.955933
0.108002 0.946411 0.955933
0.247284 0.946411 0.955933
0.382446 0.946411 0.955933
0.497437 0.946411 0.955933
0.617676 0.946411 0.955933
0.769318 0.946411 0.955933
0.919434 0.946411 0.955933
