Game/res/assets/textures/CUST_LUT.CUBE
#Created by: Adobe Photoshop Export Color Lookup Plugin
TITLE "ceHKyFo.psd"
#LUT size
LUT_3D_SIZE 5
#data domain
#LUT data points
DOMAIN_MIN 0.000000 0.000000 0.000000
DOMAIN_MAX 0.903226 0.903226 0.903226
0.160797 0.039215 0.349030
0.215393 0.068298 0.326294
0.290924 0.108521 0.294891
0.381592 0.156830 0.257172
0.482758 0.210724 0.215088
0.288208 0.107086 0.295990
0.378479 0.155151 0.258484
0.479401 0.208923 0.216492
0.583588 0.264435 0.173157
0.657410 0.303741 0.142456
0.475647 0.206909 0.218048
0.581177 0.263153 0.174164
0.654785 0.302368 0.143555
0.726837 0.340759 0.113586
0.795105 0.377106 0.085175
0.652405 0.301086 0.144531
0.724548 0.339539 0.114532
0.792969 0.375977 0.086090
0.856323 0.409729 0.059723
0.912445 0.439636 0.036377
0.790802 0.374817 0.086975
0.854156 0.408569 0.060608
0.910767 0.438721 0.037079
0.958405 0.464111 0.017273
0.995697 0.483948 0.001770
0.178162 0.048462 0.341797
0.240967 0.081909 0.315643
0.322815 0.125519 0.281616
0.417816 0.176117 0.242096
0.521393 0.231293 0.199005
0.319611 0.123810 0.282959
0.414581 0.174408 0.243469
0.517578 0.229279 0.200623
0.610779 0.278900 0.161865
0.683868 0.317841 0.131439
0.514160 0.227448 0.202026
0.608368 0.277649 0.162842
0.681519 0.316620 0.132416
0.752472 0.354401 0.102905
0.819000 0.389832 0.075256
0.679169 0.315338 0.133423
0.750000 0.353088 0.103943
0.816925 0.388733 0.076111
0.877686 0.421112 0.050842
0.931000 0.449524 0.028656
0.814850 0.387634 0.076965
0.875854 0.420105 0.051605
0.929413 0.448639 0.029327
0.973419 0.472107 0.011017
1.000000 0.486267 0.000000
0.198547 0.059326 0.333313
0.269073 0.096893 0.303955
0.356171 0.143280 0.267731
0.455139 0.196014 0.226593
0.560028 0.251892 0.182953
0.353149 0.141663 0.269012
0.451813 0.194244 0.227966
0.556580 0.250061 0.184387
0.637878 0.293365 0.150574
0.710236 0.331909 0.120483
0.553131 0.248199 0.185822
0.635223 0.291931 0.151672
0.707947 0.330658 0.121460
0.777313 0.367645 0.092590
0.842072 0.402130 0.065643
0.705627 0.329437 0.122406
0.775116 0.366455 0.093475
0.840088 0.401062 0.066498
0.898224 0.432068 0.042297
0.948090 0.458618 0.021545
0.837860 0.399872 0.067413
0.896484 0.431122 0.043030
0.946625 0.457825 0.022156
0.986908 0.479279 0.005432
1.000000 0.486267 0.000000
0.222137 0.071899 0.323486
0.299469 0.113068 0.291321
0.391418 0.162048 0.253082
0.493317 0.216339 0.210693
0.593445 0.269684 0.169067
0.388245 0.160370 0.254395
0.489563 0.214325 0.212280
0.591064 0.268402 0.170044
0.664520 0.307526 0.139496
0.736206 0.345734 0.109680
0.588654 0.267120 0.171051
0.662140 0.306274 0.140472
0.733673 0.344391 0.110748
0.801758 0.380646 0.082428
0.864075 0.413849 0.056519
0.731415 0.343170 0.111664
0.799622 0.379517 0.083313
0.862122 0.412811 0.057312
0.917664 0.442413 0.034210
0.964020 0.467102 0.014923
0.860229 0.411804 0.058105
0.915985 0.441528 0.034912
0.962677 0.466370 0.015472
0.998688 0.485565 0.000519
1.000000 0.486267 0.000000
0.248444 0.085876 0.312561
0.331573 0.130188 0.277985
0.427979 0.181519 0.237885
0.531708 0.236786 0.194733
0.620605 0.284149 0.157776
0.424683 0.179810 0.239258
0.528259 0.234955 0.196167
0.618225 0.282898 0.158752
0.691132 0.321747 0.128418
0.761414 0.359161 0.099213
0.615570 0.281464 0.159851
0.688812 0.320496 0.129395
0.759186 0.357971 0.100128
0.825409 0.393250 0.072571
0.885284 0.425140 0.047699
0.756958 0.356781 0.101044
0.823364 0.392181 0.073425
0.883453 0.424164 0.048431
0.935699 0.451996 0.026703
0.978485 0.474792 0.008911
0.881592 0.423187 0.049194
0.934143 0.451172 0.027374
0.977264 0.474152 0.009430
1.000000 0.486267 0.000000
1.000000 0.486267 0.000000
