Game/res/assets/textures/CUST_LUT.CUBE
#Created by: Adobe Photoshop Export Color Lookup Plugin
TITLE "ceHKyFo.psd"
#LUT size
LUT_3D_SIZE 32
#data domain
DOMAIN_MIN 0.0 0.0 0.0
DOMAIN_MAX 1.0 1.0 1.0
#LUT data points
0.160797 0.039215 0.349030
0.167175 0.042603 0.346344
0.173950 0.046204 0.343536
0.181366 0.050171 0.340454
0.189301 0.054382 0.337158
0.197479 0.058746 0.333740
0.206329 0.063477 0.330078
0.215393 0.068298 0.326294
0.225098 0.073456 0.322266
0.235229 0.078857 0.318054
0.245483 0.084320 0.313782
0.256378 0.090149 0.309265
0.267670 0.096130 0.304565
0.278992 0.102173 0.299835
0.290924 0.108521 0.294891
0.303192 0.115051 0.289795
0.315460 0.121613 0.284668
0.328308 0.128448 0.279327
0.341095 0.135254 0.274017
0.354492 0.142395 0.268433
0.368103 0.149658 0.262787
0.381592 0.156830 0.257172
0.395660 0.164337 0.251312
0.409912 0.171906 0.245392
0.423981 0.179382 0.239563
0.438568 0.187164 0.233459
0.453308 0.195007 0.227356
0.467773 0.202728 0.221313
0.482758 0.210724 0.215088
0.497467 0.218567 0.208984
0.512634 0.226654 0.202667
0.527893 0.234772 0.196320
0.173767 0.046112 0.343597
0.181183 0.050049 0.340546
0.188904 0.054169 0.337311
0.197266 0.058624 0.333832
0.206085 0.063354 0.330170
0.215149 0.068146 0.326385
0.224854 0.073334 0.322357
0.234711 0.078583 0.318268
0.245209 0.084167 0.313904
0.256104 0.089996 0.309357
0.267090 0.095825 0.304810
0.278687 0.102020 0.299957
0.290619 0.108368 0.295013
0.302582 0.114746 0.290039
0.315125 0.121429 0.284790
0.327667 0.128082 0.279602
0.340790 0.135071 0.274139
0.354156 0.142212 0.268585
0.367432 0.149292 0.263062
0.381256 0.156647 0.257294
0.395294 0.164124 0.251465
0.409180 0.171509 0.245697
0.423615 0.179199 0.239685
0.438202 0.186981 0.233612
0.452545 0.194611 0.227661
0.467407 0.202545 0.221466
0.482391 0.210510 0.215240
0.497101 0.218353 0.209137
0.512268 0.226440 0.202820
0.527100 0.234344 0.196655
0.542389 0.242493 0.190277
0.557739 0.250671 0.183929
0.188690 0.054047 0.337402
0.197052 0.058502 0.333923
0.205658 0.063110 0.330353
0.214905 0.068024 0.326508
0.224365 0.073059 0.322571
0.234467 0.078461 0.318359
0.244965 0.084045 0.313995
0.255554 0.089691 0.309601
0.266815 0.095673 0.304932
0.278412 0.101868 0.300079
0.290039 0.108032 0.295258
0.302277 0.114563 0.290161
0.314819 0.121246 0.284943
0.327332 0.127930 0.279724
0.340454 0.134918 0.274292
0.353485 0.141846 0.268860
0.367065 0.149109 0.263214
0.380920 0.156464 0.257446
0.394592 0.163757 0.251770
0.408844 0.171326 0.245850
0.423248 0.179016 0.239838
0.437439 0.186584 0.233917
0.452179 0.194427 0.227814
0.467041 0.202332 0.221619
0.481659 0.210114 0.215576
0.496735 0.218140 0.209290
0.511505 0.226013 0.203156
0.526733 0.234131 0.196808
0.542023 0.242310 0.190430
0.556976 0.250244 0.184235
0.572327 0.258423 0.177856
0.585449 0.265411 0.172394
0.205414 0.062988 0.330444
0.214661 0.067902 0.326599
0.224121 0.072937 0.322662
0.234192 0.078308 0.318481
0.244415 0.083740 0.314240
0.255280 0.089539 0.309723
0.266510 0.095520 0.305054
0.277802 0.101532 0.300323
0.289734 0.107880 0.295380
0.301971 0.114410 0.290283
0.314178 0.120911 0.285217
0.326996 0.127747 0.279877
0.340118 0.134735 0.274414
0.353149 0.141663 0.269012
0.366730 0.148926 0.263367
0.380219 0.156097 0.257751
0.394226 0.163574 0.251923
0.408478 0.171143 0.245972
0.422516 0.178619 0.240143
0.437073 0.186401 0.234070
0.451813 0.194244 0.227966
0.466309 0.201935 0.221924
0.481262 0.209930 0.215729
0.496338 0.217957 0.209442
0.511108 0.225830 0.203308
0.526337 0.233948 0.196960
0.541260 0.241882 0.190765
0.556580 0.250061 0.184387
0.571930 0.258240 0.178009
0.584900 0.265137 0.172607
0.595581 0.270813 0.168182
0.606262 0.276489 0.163727
0.223877 0.072784 0.322784
0.233673 0.078033 0.318695
0.244141 0.083618 0.314331
0.255005 0.089386 0.309814
0.265961 0.095215 0.305267
0.277527 0.101379 0.300446
0.289429 0.107727 0.295502
0.301331 0.114075 0.290558
0.313873 0.120728 0.285339
0.326691 0.127563 0.279999
0.339447 0.134369 0.274689
0.352814 0.141479 0.269135
0.366058 0.148560 0.263641
0.379852 0.155884 0.257904
0.393890 0.163361 0.252045
0.407745 0.170746 0.246307
0.422180 0.178436 0.240295
0.436737 0.186188 0.234222
0.451080 0.193848 0.228271
0.465942 0.201752 0.222076
0.480896 0.209717 0.215881
0.495575 0.217560 0.209747
0.510742 0.225616 0.203461
0.525574 0.233521 0.197296
0.540863 0.241669 0.190918
0.556213 0.249847 0.184540
0.571167 0.257813 0.178314
0.584656 0.264984 0.172729
0.595306 0.270691 0.168274
0.605713 0.276215 0.163940
0.616364 0.281891 0.159515
0.626984 0.287567 0.155090
0.243896 0.083466 0.314453
0.254456 0.089081 0.310059
0.265656 0.095062 0.305389
0.277222 0.101227 0.300568
0.288818 0.107391 0.295746
0.301025 0.113922 0.290680
0.313568 0.120575 0.285492
0.326050 0.127228 0.280273
0.339111 0.134216 0.274841
0.352478 0.141327 0.269287
0.365692 0.148346 0.263794
0.379517 0.155701 0.258057
0.393188 0.162994 0.252350
0.407410 0.170563 0.246429
0.421783 0.178253 0.240448
0.436005 0.185791 0.234558
0.450714 0.193634 0.228424
0.465546 0.201538 0.222260
0.480133 0.209320 0.216187
0.495209 0.217346 0.209900
0.510345 0.225433 0.203613
0.525208 0.233337 0.197449
0.540497 0.241455 0.191071
0.555420 0.249420 0.184875
0.570770 0.257599 0.178497
0.584381 0.264862 0.172821
0.594788 0.270386 0.168518
0.605438 0.276062 0.164063
0.616089 0.281769 0.159637
0.626465 0.287262 0.155334
0.637085 0.292908 0.150909
0.647644 0.298553 0.146515
0.265381 0.094910 0.305511
0.276642 0.100922 0.300842
0.288513 0.107239 0.295868
0.300720 0.113739 0.290802
0.312927 0.120239 0.285736
0.325714 0.127045 0.280396
0.338776 0.134033 0.274963
0.351807 0.140961 0.269562
0.365356 0.148163 0.263916
0.378815 0.155334 0.258331
0.392822 0.162811 0.252502
0.407043 0.170380 0.246582
0.421082 0.177856 0.240753
0.435638 0.185608 0.234711
0.450348 0.193451 0.228577
0.464813 0.201141 0.222565
0.479767 0.209137 0.216339
0.494843 0.217163 0.210083
0.509613 0.225006 0.203949
0.524841 0.233124 0.197601
0.539734 0.241058 0.191406
0.555054 0.249237 0.185028
0.570404 0.257385 0.178650
0.583832 0.264557 0.173065
0.594513 0.270264 0.168610
0.605164 0.275940 0.164185
0.615570 0.281464 0.159851
0.626190 0.287140 0.155426
0.636810 0.292786 0.151031
0.647125 0.298279 0.146729
0.657684 0.303894 0.142334
0.667908 0.309357 0.138092
0.288208 0.107086 0.295990
0.300110 0.113434 0.291077
0.312622 0.120056 0.285858
0.325409 0.126892 0.280548
0.338135 0.133667 0.275238
0.351440 0.140778 0.269714
0.365021 0.147980 0.264069
0.378479 0.155151 0.258484
0.392487 0.162628 0.252655
0.406342 0.170013 0.246887
0.420715 0.177673 0.240906
0.435272 0.185425 0.234863
0.449615 0.193054 0.228882
0.464417 0.200958 0.222717
0.479401 0.208923 0.216492
0.494080 0.216736 0.210388
0.509216 0.224823 0.204102
0.524445 0.232910 0.197754
0.539337 0.240845 0.191559
0.554657 0.249023 0.185181
0.569611 0.256989 0.178955
0.583588 0.264435 0.173157
0.594238 0.270111 0.168732
0.604645 0.275635 0.164398
0.615295 0.281342 0.159973
0.625946 0.286987 0.155548
0.636261 0.292480 0.151245
0.646851 0.298126 0.146851
0.657410 0.303741 0.142456
0.667664 0.309235 0.138184
0.678131 0.314789 0.133850
0.688293 0.320190 0.129608
0.312286 0.119904 0.286011
0.324738 0.126556 0.280823
0.337799 0.133514 0.275391
0.351105 0.140594 0.269867
0.364349 0.147614 0.264343
0.378113 0.154968 0.258606
0.391785 0.162262 0.252930
0.405975 0.169800 0.247040
0.420349 0.177460 0.241058
0.434540 0.185028 0.235168
0.449249 0.192871 0.229034
0.464050 0.200775 0.222870
0.478638 0.208527 0.216797
0.493713 0.216553 0.210541
0.508850 0.224609 0.204254
0.523682 0.232513 0.198059
0.538940 0.240662 0.191711
0.554260 0.248810 0.185364
0.569244 0.256775 0.179108
0.583313 0.264282 0.173279
0.593719 0.269836 0.168945
0.604370 0.275513 0.164520
0.615021 0.281189 0.160065
0.625397 0.286713 0.155762
0.636017 0.292358 0.151367
0.646606 0.298004 0.146942
0.656891 0.303467 0.142670
0.667389 0.309082 0.138306
0.677856 0.314667 0.133942
0.688019 0.320068 0.129730
0.698395 0.325592 0.125427
0.708466 0.330933 0.121246
0.337463 0.133331 0.275513
0.350433 0.140228 0.270142
0.364014 0.147461 0.264496
0.377777 0.154785 0.258759
0.391418 0.162048 0.253082
0.405609 0.169617 0.247192
0.419617 0.177094 0.241364
0.434174 0.184845 0.235321
0.448853 0.192657 0.229187
0.463318 0.200378 0.223175
0.478271 0.208313 0.216949
0.493317 0.216339 0.210693
0.508087 0.224213 0.204559
0.523285 0.232330 0.198242
0.538574 0.240448 0.191895
0.553497 0.248413 0.185669
0.568848 0.256592 0.179291
0.582794 0.264008 0.173492
0.593445 0.269684 0.169067
0.604095 0.275360 0.164642
0.614502 0.280884 0.160309
0.625153 0.286560 0.155884
0.635742 0.292206 0.151459
0.646057 0.297729 0.147186
0.656616 0.303345 0.142792
0.667114 0.308960 0.138397
0.677338 0.314392 0.134155
0.687775 0.319916 0.129822
0.697876 0.325317 0.125641
0.708191 0.330811 0.121338
0.718445 0.336273 0.117065
0.728363 0.341553 0.112946
0.363647 0.147278 0.264618
0.377075 0.154419 0.259064
0.391083 0.161865 0.253235
0.404907 0.169250 0.247467
0.419281 0.176910 0.241486
0.433807 0.184631 0.235474
0.448120 0.192261 0.229492
0.462952 0.200165 0.223328
0.477905 0.208130 0.217133
0.492584 0.215942 0.211029
0.507690 0.223999 0.204712
0.522919 0.232117 0.198395
0.537811 0.240051 0.192200
0.553131 0.248199 0.185822
0.568085 0.256165 0.179596
0.582520 0.263855 0.173615
0.593170 0.269562 0.169159
0.603577 0.275085 0.164856
0.614227 0.280762 0.160431
0.624847 0.286438 0.155975
0.635223 0.291931 0.151672
0.645813 0.297577 0.147278
0.656372 0.303192 0.142883
0.666595 0.308655 0.138641
0.677094 0.314240 0.134277
0.687531 0.319794 0.129944
0.697632 0.325195 0.125732
0.707947 0.330658 0.121460
0.717926 0.335999 0.117279
0.728119 0.341431 0.113037
0.738220 0.346802 0.108826
0.747986 0.352020 0.104767
0.390717 0.161682 0.253357
0.404541 0.169067 0.247620
0.418915 0.176697 0.241638
0.433075 0.184265 0.235748
0.447754 0.192078 0.229645
0.462585 0.199982 0.223480
0.477142 0.207733 0.217438
0.492188 0.215759 0.211182
0.507324 0.223816 0.204865
0.522156 0.231720 0.198700
0.537415 0.239838 0.192352
0.552734 0.248016 0.185974
0.567719 0.255981 0.179779
0.582245 0.263702 0.173706
0.592651 0.269257 0.169403
0.603302 0.274933 0.164948
0.613983 0.280609 0.160522
0.624329 0.286133 0.156219
0.634949 0.291779 0.151794
0.645538 0.297424 0.147400
0.655823 0.302917 0.143097
0.666351 0.308502 0.138733
0.676819 0.314087 0.134369
0.686981 0.319519 0.130157
0.697357 0.325043 0.125854
0.707428 0.330414 0.121674
0.717682 0.335846 0.117401
0.727875 0.341278 0.113159
0.737701 0.346527 0.109039
0.747742 0.351898 0.104889
0.757690 0.357178 0.100739
0.767303 0.362305 0.096741
0.418182 0.176331 0.241943
0.432709 0.184052 0.235901
0.447388 0.191895 0.229797
0.461823 0.199585 0.223816
0.476776 0.207520 0.217590
0.491791 0.215546 0.211334
0.506561 0.223419 0.205200
0.521790 0.231506 0.198853
0.537048 0.239655 0.192505
0.551971 0.247589 0.186310
0.567322 0.255768 0.179932
0.581696 0.263428 0.173950
0.592377 0.269104 0.169495
0.603058 0.274811 0.165070
0.613434 0.280334 0.160767
0.624054 0.286011 0.156342
0.634674 0.291656 0.151917
0.645020 0.297150 0.147614
0.655548 0.302765 0.143219
0.666077 0.308380 0.138855
0.676300 0.313812 0.134613
0.686737 0.319366 0.130249
0.697113 0.324921 0.125946
0.707184 0.330261 0.121765
0.717407 0.335724 0.117493
0.727356 0.341034 0.113373
0.737457 0.346405 0.109161
0.747498 0.351746 0.104980
0.757202 0.356934 0.100952
0.767059 0.362183 0.096832
0.776825 0.367371 0.092773
0.786255 0.372406 0.088867
0.446655 0.191498 0.230103
0.461456 0.199371 0.223969
0.476379 0.207336 0.217743
0.491058 0.215149 0.211639
0.506195 0.223206 0.205353
0.521393 0.231293 0.199005
0.536285 0.239227 0.192841
0.551605 0.247406 0.186462
0.566956 0.255554 0.180084
0.581451 0.263306 0.174042
0.592102 0.268982 0.169617
0.602509 0.274506 0.165283
0.613159 0.280182 0.160858
0.623810 0.285858 0.156433
0.634155 0.291382 0.152130
0.644745 0.297028 0.147705
0.655304 0.302643 0.143341
0.665558 0.308105 0.139069
0.676056 0.313690 0.134705
0.686462 0.319244 0.130371
0.696594 0.324646 0.126160
0.706909 0.330139 0.121887
0.716919 0.335449 0.117706
0.727112 0.340881 0.113464
0.737213 0.346283 0.109253
0.747009 0.351471 0.105194
0.756958 0.356781 0.101044
0.766815 0.362030 0.096954
0.776337 0.367096 0.092987
0.786011 0.372284 0.088959
0.795593 0.377350 0.084991
0.804810 0.382263 0.081146
0.475647 0.206909 0.218048
0.490662 0.214935 0.211792
0.505798 0.222992 0.205505
0.520630 0.230896 0.199341
0.535919 0.239044 0.192993
0.551208 0.247192 0.186615
0.566162 0.255157 0.180420
0.581177 0.263153 0.174164
0.591583 0.268677 0.169830
0.602264 0.274384 0.165405
0.612885 0.280060 0.160980
0.623260 0.285583 0.156647
0.633881 0.291229 0.152222
0.644470 0.296875 0.147827
0.654785 0.302368 0.143555
0.665314 0.307953 0.139160
0.675781 0.313538 0.134827
0.685944 0.318970 0.130585
0.696320 0.324493 0.126282
0.706635 0.329987 0.121979
0.716644 0.335327 0.117828
0.726837 0.340759 0.113586
0.736694 0.346008 0.109467
0.746765 0.351349 0.105286
0.756714 0.356659 0.101135
0.766327 0.361786 0.097137
0.776093 0.366974 0.093079
0.785767 0.372131 0.089050
0.795105 0.377106 0.085175
0.804565 0.382141 0.081238
0.813904 0.387146 0.077362
0.822906 0.391937 0.073608
0.505066 0.222595 0.205811
0.520264 0.230713 0.199493
0.535522 0.238831 0.193146
0.550446 0.246796 0.186951
0.565796 0.254944 0.180573
0.580902 0.263000 0.174286
0.591309 0.268555 0.169952
0.601990 0.274231 0.165497
0.612366 0.279755 0.161194
0.623016 0.285431 0.156769
0.633636 0.291077 0.152344
0.643951 0.296570 0.148041
0.654510 0.302216 0.143646
0.665039 0.307831 0.139282
0.675232 0.313263 0.135040
0.685699 0.318817 0.130707
0.696075 0.324371 0.126373
0.706146 0.329712 0.122192
0.716400 0.335175 0.117920
0.726318 0.340485 0.113800
0.736450 0.345856 0.109589
0.746521 0.351227 0.105408
0.756195 0.356384 0.101349
0.766083 0.361664 0.097260
0.775848 0.366852 0.093170
0.785309 0.371887 0.089264
0.794861 0.376984 0.085266
0.804321 0.382019 0.081329
0.813446 0.386902 0.077545
0.822662 0.391815 0.073700
0.831543 0.396515 0.070007
0.840546 0.401306 0.066284
0.534760 0.238434 0.193481
0.550049 0.246582 0.187103
0.565399 0.254761 0.180725
0.580383 0.262726 0.174500
0.591064 0.268402 0.170044
0.601715 0.274078 0.165619
0.612091 0.279633 0.161316
0.622742 0.285309 0.156891
0.633087 0.290802 0.152588
0.643677 0.296448 0.148163
0.654236 0.302063 0.143768
0.664520 0.307526 0.139496
0.674988 0.313141 0.135132
0.685425 0.318695 0.130798
0.695557 0.324066 0.126587
0.705872 0.329590 0.122314
0.716156 0.335052 0.118042
0.726074 0.340363 0.113892
0.736206 0.345734 0.109680
0.746246 0.351074 0.105499
0.755951 0.356262 0.101471
0.765839 0.361511 0.097351
0.775360 0.366608 0.093384
0.785034 0.371765 0.089355
0.794617 0.376862 0.085388
0.803864 0.381775 0.081543
0.813232 0.386780 0.077637
0.822449 0.391693 0.073822
0.831329 0.396393 0.070129
0.840302 0.401184 0.066406
0.849152 0.405884 0.062714
0.857635 0.410431 0.059174
0.564636 0.254333 0.181030
0.579987 0.262512 0.174652
0.590790 0.268250 0.170166
0.601166 0.273804 0.165833
0.611847 0.279480 0.161407
0.622467 0.285156 0.156982
0.632843 0.290680 0.152679
0.643433 0.296295 0.148254
0.653717 0.301788 0.143982
0.664246 0.307404 0.139618
0.674713 0.312988 0.135254
0.684906 0.318420 0.131012
0.695313 0.323944 0.126709
0.705627 0.329437 0.122406
0.715637 0.334778 0.118256
0.725830 0.340210 0.114014
0.735962 0.345612 0.109802
0.745758 0.350830 0.105713
0.755707 0.356140 0.101563
0.765350 0.361267 0.097565
0.775116 0.366455 0.093475
0.784821 0.371643 0.089447
0.794159 0.376617 0.085571
0.803619 0.381653 0.081635
0.812988 0.386627 0.077759
0.821991 0.391449 0.074005
0.831085 0.396301 0.070221
0.840088 0.401062 0.066498
0.848724 0.405670 0.062897
0.857422 0.410309 0.059265
0.865753 0.414764 0.055817
0.874176 0.419250 0.052307
0.590240 0.267975 0.170380
0.600922 0.273682 0.165955
0.611572 0.279327 0.161530
0.621948 0.284851 0.157196
0.632568 0.290527 0.152802
0.642883 0.296021 0.148499
0.653473 0.301666 0.144104
0.663971 0.307251 0.139709
0.674194 0.312714 0.135468
0.684662 0.318268 0.131134
0.695038 0.323792 0.126801
0.705109 0.329163 0.122620
0.715393 0.334625 0.118347
0.725586 0.340088 0.114105
0.735443 0.345337 0.110016
0.745483 0.350677 0.105835
0.755463 0.355988 0.101685
0.765106 0.361115 0.097687
0.774902 0.366333 0.093597
0.784332 0.371368 0.089661
0.793915 0.376495 0.085663
0.803375 0.381531 0.081726
0.812531 0.386383 0.077942
0.821747 0.391327 0.074097
0.830872 0.396179 0.070313
0.839630 0.400818 0.066681
0.848480 0.405548 0.062988
0.857208 0.410187 0.059357
0.865540 0.414642 0.055878
0.873962 0.419128 0.052399
0.882019 0.423401 0.049042
0.890106 0.427734 0.045654
0.611023 0.279053 0.161743
0.621674 0.284729 0.157318
0.632294 0.290375 0.152893
0.642639 0.295868 0.148621
0.653198 0.301514 0.144196
0.663452 0.306976 0.139923
0.673950 0.312561 0.135590
0.684387 0.318146 0.131226
0.694519 0.323517 0.127014
0.704834 0.329041 0.122742
0.715118 0.334503 0.118469
0.725067 0.339783 0.114319
0.735199 0.345215 0.110107
0.745239 0.350555 0.105927
0.754974 0.355743 0.101898
0.764862 0.360992 0.097778
0.774414 0.366089 0.093811
0.784088 0.371246 0.089752
0.793671 0.376343 0.085785
0.802917 0.381287 0.081940
0.812286 0.386261 0.078033
0.821533 0.391205 0.074219
0.830414 0.395935 0.070496
0.839417 0.400726 0.066772
0.848267 0.405426 0.063080
0.856781 0.409943 0.059540
0.865326 0.414520 0.055969
0.873535 0.418915 0.052551
0.881805 0.423309 0.049133
0.889923 0.427612 0.045746
0.897644 0.431732 0.042542
0.905426 0.435883 0.039307
0.631775 0.290100 0.153137
0.642365 0.295746 0.148712
0.652679 0.301239 0.144409
0.663177 0.306854 0.140045
0.673676 0.312408 0.135681
0.683868 0.317841 0.131439
0.694244 0.323395 0.127136
0.704590 0.328888 0.122833
0.714600 0.334229 0.118683
0.724823 0.339661 0.114410
0.734955 0.345062 0.110199
0.744751 0.350281 0.106140
0.754730 0.355621 0.101990
0.764374 0.360748 0.097992
0.774170 0.365936 0.093903
0.783844 0.371124 0.089874
0.793213 0.376099 0.085999
0.802673 0.381134 0.082031
0.812042 0.386139 0.078156
0.821075 0.390961 0.074402
0.830200 0.395813 0.070587
0.839172 0.400604 0.066864
0.847839 0.405182 0.063263
0.856567 0.409851 0.059631
0.865112 0.414429 0.056061
0.873322 0.418793 0.052643
0.881592 0.423187 0.049194
0.889526 0.427399 0.045929
0.897461 0.431641 0.042603
0.905212 0.435791 0.039398
0.912628 0.439728 0.036316
0.920044 0.443665 0.033234
0.652405 0.301086 0.144531
0.662933 0.306702 0.140167
0.673157 0.312134 0.135895
0.683624 0.317719 0.131561
0.694000 0.323242 0.127228
0.704071 0.328613 0.123047
0.714355 0.334106 0.118774
0.724548 0.339539 0.114532
0.734436 0.344788 0.110413
0.744507 0.350159 0.106232
0.754486 0.355469 0.102081
0.764099 0.360596 0.098083
0.773926 0.365814 0.093994
0.783356 0.370850 0.090088
0.792969 0.375977 0.086090
0.802460 0.381012 0.082153
0.811584 0.385895 0.078339
0.820831 0.390839 0.074493
0.829956 0.395691 0.070679
0.838745 0.400360 0.067047
0.847595 0.405090 0.063354
0.856323 0.409729 0.059723
0.864716 0.414185 0.056244
0.873138 0.418671 0.052734
0.881195 0.422974 0.049377
0.889313 0.427307 0.045990
0.897247 0.431549 0.042694
0.904846 0.435577 0.039551
0.912445 0.439636 0.036377
0.919861 0.443573 0.033295
0.926910 0.447327 0.030365
0.933960 0.451080 0.027435
0.672913 0.312012 0.136017
0.683350 0.317566 0.131653
0.693481 0.322968 0.127441
0.703827 0.328491 0.123138
0.714081 0.333954 0.118866
0.724060 0.339264 0.114746
0.734192 0.344666 0.110535
0.744263 0.350006 0.106354
0.753998 0.355194 0.102295
0.763855 0.360474 0.098175
0.773438 0.365570 0.094208
0.783112 0.370728 0.090179
0.792725 0.375854 0.086182
0.801971 0.380768 0.082336
0.811340 0.385773 0.078430
0.820618 0.390717 0.074585
0.829529 0.395447 0.070892
0.838531 0.400238 0.067139
0.847382 0.404968 0.063446
0.855896 0.409485 0.059906
0.864502 0.414093 0.056335
0.872925 0.418579 0.052826
0.880981 0.422882 0.049469
0.889099 0.427185 0.046082
0.896881 0.431335 0.042847
0.904663 0.435486 0.039642
0.912262 0.439514 0.036469
0.919495 0.443390 0.033447
0.926758 0.447235 0.030426
0.933807 0.450989 0.027527
0.940460 0.454559 0.024719
0.947113 0.458099 0.021973
0.693207 0.322845 0.127563
0.703552 0.328339 0.123260
0.713593 0.333679 0.119080
0.723785 0.339111 0.114838
0.733917 0.344543 0.110626
0.743744 0.349762 0.106537
0.753723 0.355072 0.102386
0.763611 0.360352 0.098297
0.773163 0.365417 0.094299
0.782898 0.370605 0.090271
0.792236 0.375580 0.086395
0.801758 0.380646 0.082428
0.811127 0.385651 0.078522
0.820129 0.390442 0.074768
0.829285 0.395325 0.070984
0.838287 0.400116 0.067230
0.846954 0.404724 0.063629
0.855682 0.409393 0.059998
0.864288 0.413940 0.056427
0.872498 0.418335 0.053009
0.880798 0.422760 0.049561
0.888702 0.426971 0.046234
0.896667 0.431213 0.042938
0.904449 0.435364 0.039703
0.911896 0.439331 0.036621
0.919312 0.443298 0.033508
0.926575 0.447144 0.030518
0.933441 0.450806 0.027649
0.940308 0.454468 0.024811
0.946960 0.458008 0.022034
0.953247 0.461365 0.019409
0.959473 0.464661 0.016815
0.713318 0.333557 0.119202
0.723541 0.338989 0.114960
0.733429 0.344269 0.110840
0.743500 0.349609 0.106659
0.753479 0.354919 0.102509
0.763123 0.360077 0.098480
0.772919 0.365295 0.094421
0.782654 0.370453 0.090363
0.791992 0.375458 0.086487
0.801514 0.380524 0.082520
0.810638 0.385406 0.078735
0.819916 0.390320 0.074860
0.829071 0.395203 0.071075
0.837860 0.399872 0.067413
0.846710 0.404602 0.063721
0.855469 0.409271 0.060089
0.863861 0.413727 0.056610
0.872284 0.418243 0.053070
0.880585 0.422638 0.049622
0.888519 0.426880 0.046326
0.896484 0.431122 0.043030
0.904083 0.435150 0.039856
0.911713 0.439209 0.036682
0.919128 0.443176 0.033600
0.926208 0.446960 0.030640
0.933258 0.450714 0.027740
0.940125 0.454376 0.024872
0.946625 0.457825 0.022156
0.953064 0.461273 0.019470
0.959320 0.464600 0.016876
0.965210 0.467712 0.014435
0.971008 0.470825 0.012024
0.733185 0.344116 0.110931
0.743256 0.349487 0.106750
0.752991 0.354675 0.102722
0.762878 0.359955 0.098602
0.772675 0.365173 0.094513
0.782166 0.370209 0.090576
0.791779 0.375336 0.086578
0.801025 0.380280 0.082733
0.810425 0.385254 0.078827
0.819672 0.390198 0.074951
0.828613 0.394958 0.071259
0.837616 0.399780 0.067505
0.846497 0.404480 0.063812
0.855042 0.409027 0.060272
0.863647 0.413605 0.056671
0.872101 0.418121 0.053162
0.880188 0.422424 0.049805
0.888306 0.426758 0.046417
0.896088 0.430908 0.043182
0.903900 0.435059 0.039948
0.911499 0.439117 0.036774
0.918762 0.442993 0.033752
0.926025 0.446869 0.030731
0.933075 0.450623 0.027802
0.939789 0.454193 0.025024
0.946472 0.457764 0.022217
0.952911 0.461182 0.019562
0.959015 0.464417 0.016998
0.965057 0.467651 0.014496
0.970734 0.470673 0.012146
0.976318 0.473633 0.009827
0.981659 0.476501 0.007599
0.752747 0.354523 0.102814
0.762634 0.359833 0.098694
0.772186 0.364899 0.094727
0.781921 0.370087 0.090668
0.791534 0.375214 0.086670
0.800812 0.380157 0.082825
0.810181 0.385132 0.078918
0.819214 0.389954 0.075165
0.828400 0.394836 0.071350
0.837402 0.399658 0.067596
0.846069 0.404266 0.063995
0.854797 0.408905 0.060364
0.863434 0.413513 0.056763
0.871674 0.417877 0.053345
0.879974 0.422333 0.049896
0.888123 0.426666 0.046509
0.895874 0.430817 0.043274
0.903687 0.434967 0.040039
0.911133 0.438934 0.036926
0.918579 0.442902 0.033813
0.925842 0.446777 0.030792
0.932739 0.450439 0.027954
0.939636 0.454102 0.025085
0.946320 0.457672 0.022308
0.952606 0.461029 0.019684
0.958862 0.464355 0.017090
0.964905 0.467560 0.014557
0.970581 0.470581 0.012207
0.976166 0.473572 0.009888
0.981415 0.476349 0.007690
0.986511 0.479095 0.005585
0.991394 0.481689 0.003540
0.771973 0.364777 0.094818
0.781677 0.369965 0.090790
0.791046 0.374939 0.086884
0.800568 0.380035 0.082916
0.809723 0.384888 0.079102
0.819000 0.389832 0.075256
0.828156 0.394714 0.071442
0.836945 0.399414 0.067780
0.845856 0.404144 0.064087
0.854584 0.408813 0.060455
0.862976 0.413269 0.056946
0.871460 0.417786 0.053436
0.879761 0.422211 0.049957
0.887695 0.426453 0.046661
0.895691 0.430695 0.043365
0.903320 0.434753 0.040192
0.910950 0.438812 0.037018
0.918396 0.442810 0.033905
