Game/res/assets/textures/CUST_LUT.CUBE
#Created by: Adobe Photoshop Export Color Lookup Plugin
TITLE "ceHKyFo.psd"
#LUT size
LUT_3D_SIZE 8
#data domain
#LUT data points
DOMAIN_MIN 0.000000 0.000000 0.000000
DOMAIN_MAX 0.903226 0.903226 0.903226
0.160797 0.039215 0.349030
0.189301 0.054382 0.337158
0.225098 0.073456 0.322266
0.267670 0.096130 0.304565
0.315460 0.121613 0.284668
0.368103 0.149658 0.262787
0.423981 0.179382 0.239563
0.482758 0.210724 0.215088
0.223877 0.072784 0.322784
0.265961 0.095215 0.305267
0.313873 0.120728 0.285339
0.366058 0.148560 0.263641
0.422180 0.178436 0.240295
0.480896 0.209717 0.215881
0.540863 0.241669 0.190918
0.595306 0.270691 0.168274
0.312286 0.119904 0.286011
0.364349 0.147614 0.264343
0.420349 0.177460 0.241058
0.478638 0.208527 0.216797
0.538940 0.240662 0.191711
0.593719 0.269836 0.168945
0.636017 0.292358 0.151367
0.677856 0.314667 0.133942
0.418182 0.176331 0.241943
0.476776 0.207520 0.217590
0.537048 0.239655 0.192505
0.592377 0.269104 0.169495
0.634674 0.291656 0.151917
0.676300 0.313812 0.134613
0.717407 0.335724 0.117493
0.757202 0.356934 0.100952
0.534760 0.238434 0.193481
0.591064 0.268402 0.170044
0.633087 0.290802 0.152588
0.674988 0.313141 0.135132
0.716156 0.335052 0.118042
0.755951 0.356262 0.101471
0.794617 0.376862 0.085388
0.831329 0.396393 0.070129
0.631775 0.290100 0.153137
0.673676 0.312408 0.135681
0.714600 0.334229 0.118683
0.754730 0.355621 0.101990
0.793213 0.376099 0.085999
0.830200 0.395813 0.070587
0.865112 0.414429 0.056061
0.897461 0.431641 0.042603
0.713318 0.333557 0.119202
0.753479 0.354919 0.102509
0.791992 0.375458 0.086487
0.829071 0.395203 0.071075
0.863861 0.413727 0.056610
0.896484 0.431122 0.043030
0.926208 0.446960 0.030640
0.953064 0.461273 0.019470
0.790802 0.374817 0.086975
0.827698 0.394470 0.071625
0.862762 0.413147 0.057037
0.895508 0.430603 0.043427
0.925293 0.446472 0.031036
0.952301 0.460846 0.019806
0.975769 0.473358 0.010040
0.995697 0.483948 0.001770
0.170258 0.044250 0.345062
0.201630 0.060944 0.332031
0.239929 0.081360 0.316101
0.284607 0.105164 0.297516
0.334167 0.131561 0.276886
0.388245 0.160370 0.254395
0.445160 0.190704 0.230743
0.504669 0.222382 0.205963
0.238617 0.080658 0.316650
0.283142 0.104370 0.298126
0.332550 0.130707 0.277588
0.386505 0.159424 0.255127
0.443329 0.189728 0.231506
0.502777 0.221375 0.206757
0.563110 0.253510 0.181671
0.610779 0.278900 0.161865
0.330902 0.129822 0.278259
0.384399 0.158325 0.256012
0.441498 0.188751 0.232269
0.500519 0.220184 0.207733
0.561188 0.252502 0.182465
0.609436 0.278198 0.162415
0.651337 0.300537 0.144989
0.692963 0.322693 0.127655
0.439667 0.187775 0.233032
0.498596 0.219177 0.208496
0.559265 0.251465 0.183258
0.607849 0.277374 0.163055
0.650024 0.299835 0.145538
0.691406 0.321869 0.128326
0.732178 0.343567 0.111359
0.771484 0.364532 0.095032
0.557343 0.250458 0.184082
0.606506 0.276642 0.163605
0.648712 0.299133 0.146088
0.690094 0.321167 0.128845
0.730896 0.342896 0.111877
0.770264 0.363861 0.095520
0.808319 0.384155 0.079681
0.844299 0.403320 0.064728
0.647125 0.298279 0.146729
0.688812 0.320496 0.129395
0.729370 0.342102 0.112518
0.769012 0.363220 0.096039
0.807159 0.383545 0.080170
0.843201 0.402740 0.065186
0.877289 0.420898 0.051025
0.908661 0.437622 0.037964
0.728119 0.341431 0.113037
0.767792 0.362549 0.096527
0.805756 0.382782 0.080750
0.842072 0.402130 0.065643
0.876038 0.420227 0.051514
0.907715 0.437103 0.038330
0.936371 0.452362 0.026428
0.962067 0.466064 0.015747
0.804565 0.382141 0.081238
0.840973 0.401550 0.066101
0.875000 0.419678 0.051971
0.906769 0.436584 0.038727
0.935516 0.451904 0.026794
0.961304 0.465668 0.016052
0.983490 0.477478 0.006836
1.000000 0.486267 0.000000
0.180786 0.049866 0.340698
0.214905 0.068024 0.326508
0.255554 0.089691 0.309601
0.302277 0.114563 0.290161
0.353485 0.141846 0.268860
0.408844 0.171326 0.245850
0.467041 0.202332 0.221619
0.526733 0.234131 0.196808
0.254181 0.088959 0.310181
0.300720 0.113739 0.290802
0.351807 0.140961 0.269562
0.407043 0.170380 0.246582
0.464813 0.201141 0.222565
0.524841 0.233124 0.197601
0.583832 0.264557 0.173065
0.626190 0.287140 0.155426
0.350098 0.140045 0.270264
0.404907 0.169250 0.247467
0.462952 0.200165 0.223328
0.522919 0.232117 0.198395
0.582520 0.263855 0.173615
0.624847 0.286438 0.155975
0.666595 0.308655 0.138641
0.707947 0.330658 0.121460
0.461090 0.199158 0.224121
0.520630 0.230896 0.199341
0.581177 0.263153 0.174164
0.623260 0.285583 0.156647
0.665314 0.307953 0.139160
0.706390 0.329865 0.122101
0.746765 0.351349 0.105286
0.785767 0.372131 0.089050
0.579620 0.262329 0.174805
0.621948 0.284851 0.157196
0.663971 0.307251 0.139709
0.705109 0.329163 0.122620
0.745483 0.350677 0.105835
0.784332 0.371368 0.089661
0.821747 0.391327 0.074097
0.856995 0.410065 0.059448
0.662415 0.306427 0.140381
0.703827 0.328491 0.123138
0.744263 0.350006 0.106354
0.783112 0.370728 0.090179
0.820618 0.390717 0.074585
0.855896 0.409485 0.059906
0.889099 0.427185 0.046082
0.919495 0.443390 0.033447
0.742737 0.349213 0.106964
0.781921 0.370087 0.090668
0.819214 0.389954 0.075165
0.854797 0.408905 0.060364
0.888123 0.426666 0.046509
0.918579 0.442902 0.033813
0.946320 0.457672 0.022308
0.970581 0.470581 0.012207
0.818085 0.389343 0.075623
0.853729 0.408356 0.060791
0.886902 0.426025 0.047028
0.917664 0.442413 0.034210
0.945313 0.457153 0.022705
0.969879 0.470215 0.012512
0.990692 0.481293 0.003845
1.000000 0.486267 0.000000
0.192383 0.056030 0.335846
0.229095 0.075592 0.320587
0.271973 0.098450 0.302765
0.320557 0.124298 0.282562
0.373627 0.152588 0.260498
0.429810 0.182495 0.237122
0.488800 0.213928 0.212585
0.548920 0.245941 0.187592
0.270538 0.097656 0.303375
0.318970 0.123474 0.283234
0.371552 0.151459 0.261353
0.427979 0.181519 0.237885
0.486542 0.212738 0.213531
0.546997 0.244934 0.188385
0.599579 0.272949 0.166504
0.641571 0.295319 0.149048
0.369812 0.150543 0.262085
0.426147 0.180573 0.238647
0.484650 0.211731 0.214294
0.545074 0.243927 0.189178
0.597992 0.272095 0.167175
0.640228 0.294617 0.149597
0.681793 0.316742 0.132324
0.722778 0.338593 0.115265
0.482758 0.210724 0.215088
0.542786 0.242706 0.190125
0.596649 0.271393 0.167725
0.638916 0.293915 0.150146
0.680481 0.316040 0.132874
0.721497 0.337891 0.115784
0.761139 0.359009 0.099304
0.799622 0.379517 0.083313
0.595306 0.270691 0.168274
0.637329 0.293060 0.150818
0.679169 0.315338 0.133423
0.719971 0.337097 0.116425
0.759918 0.358368 0.099823
0.798431 0.378906 0.083801
0.834930 0.398315 0.068634
0.869568 0.416779 0.054199
0.677856 0.314667 0.133942
0.718689 0.336426 0.116943
0.758698 0.357697 0.100342
0.797028 0.378113 0.084381
0.833801 0.397736 0.069092
0.868317 0.416107 0.054749
0.900574 0.433289 0.041321
0.929932 0.448944 0.029114
0.757202 0.356934 0.100952
0.795807 0.377502 0.084900
0.832672 0.397125 0.069550
0.867249 0.415558 0.055176
0.899628 0.432770 0.041718
0.929047 0.448456 0.029480
0.955597 0.462616 0.018433
0.978607 0.474884 0.008881
0.831329 0.396393 0.070129
0.866180 0.414978 0.055634
0.898438 0.432159 0.042206
0.928162 0.447998 0.029846
0.954681 0.462128 0.018829
0.977936 0.474518 0.009155
0.997467 0.484924 0.001007
1.000000 0.486267 0.000000
0.205200 0.062866 0.330536
0.244141 0.083618 0.314331
0.289429 0.107727 0.295502
0.339447 0.134369 0.274689
0.393890 0.163361 0.252045
0.451080 0.193848 0.228271
0.510742 0.225616 0.203461
0.571167 0.257813 0.178314
0.287598 0.106750 0.296265
0.337799 0.133514 0.275391
0.391785 0.162262 0.252930
0.449249 0.192871 0.229034
0.508850 0.224609 0.204254
0.569244 0.256775 0.179108
0.615021 0.281189 0.160065
0.656891 0.303467 0.142670
0.390015 0.161316 0.253662
0.447388 0.191895 0.229797
0.506561 0.223419 0.205200
0.567322 0.255768 0.179932
0.613434 0.280334 0.160767
0.655548 0.302765 0.143219
0.696838 0.324768 0.126068
0.737457 0.346405 0.109161
0.504669 0.222382 0.205963
0.565399 0.254761 0.180725
0.612091 0.279633 0.161316
0.654236 0.302063 0.143768
0.695557 0.324066 0.126587
0.736206 0.345734 0.109680
0.775360 0.366608 0.093384
0.813232 0.386780 0.077637
0.610779 0.278900 0.161865
0.652679 0.301239 0.144409
0.694244 0.323395 0.127136
0.734955 0.345062 0.110199
0.774170 0.365936 0.093903
0.812042 0.386139 0.078156
0.847839 0.405182 0.063263
0.881592 0.423187 0.049194
0.692963 0.322693 0.127655
0.733429 0.344269 0.110840
0.772919 0.365295 0.094421
0.810638 0.385406 0.078735
0.846710 0.404602 0.063721
0.880371 0.422546 0.049713
0.911713 0.439209 0.036682
0.940125 0.454376 0.024872
0.771729 0.364655 0.094910
0.809479 0.384766 0.079193
0.845612 0.404022 0.064178
0.879364 0.421997 0.050140
0.910767 0.438721 0.037079
0.939117 0.453827 0.025299
0.964447 0.467316 0.014740
0.986145 0.478882 0.005737
0.844299 0.403320 0.064728
0.878326 0.421448 0.050568
0.909607 0.438110 0.037567
0.938263 0.453369 0.025635
0.963715 0.466949 0.015045
0.985535 0.478546 0.005981
1.000000 0.486267 0.000000
1.000000 0.486267 0.000000
0.218750 0.070068 0.324921
0.260010 0.092072 0.307739
0.307251 0.117218 0.288086
0.358887 0.144745 0.266632
0.414581 0.174408 0.243469
0.472656 0.205322 0.219299
0.532837 0.237396 0.194275
0.589447 0.267548 0.170715
0.305389 0.116211 0.288849
0.357178 0.143829 0.267334
0.412781 0.173431 0.244202
0.470764 0.204346 0.220093
0.530914 0.236389 0.195038
0.588104 0.266846 0.171265
0.630432 0.289398 0.153687
0.672119 0.311584 0.136322
0.410645 0.172302 0.245087
0.468903 0.203339 0.220856
0.528656 0.235168 0.196014
0.586792 0.266144 0.171814
0.629120 0.288666 0.154236
0.670807 0.310883 0.136902
0.712036 0.332855 0.119720
0.751984 0.354126 0.103119
0.526733 0.234131 0.196808
0.585449 0.265411 0.172394
0.627533 0.287842 0.154877
0.669495 0.310211 0.137421
0.710510 0.332062 0.120361
0.750763 0.353485 0.103638
0.789368 0.374054 0.087555
0.826569 0.393860 0.072113
0.626190 0.287140 0.155426
0.668182 0.309509 0.137970
0.709229 0.331360 0.120911
0.749481 0.352814 0.104156
0.788177 0.373413 0.088074
0.825409 0.393250 0.072571
0.860443 0.411896 0.058014
0.893311 0.429413 0.044342
0.707947 0.330658 0.121460
0.747986 0.352020 0.104767
0.786987 0.372772 0.088562
0.824280 0.392639 0.073059
0.859375 0.411346 0.058472
0.892303 0.428894 0.044769
0.922424 0.444916 0.032227
0.949738 0.459473 0.020874
0.785767 0.372131 0.089050
0.822906 0.391937 0.073608
0.858276 0.410767 0.058929
0.891113 0.428253 0.045258
0.921509 0.444458 0.032623
0.948730 0.458954 0.021271
0.972839 0.471802 0.011261
0.993286 0.482697 0.002747
0.857208 0.410187 0.059357
0.890106 0.427734 0.045654
0.920593 0.443970 0.032990
0.947937 0.458527 0.021606
0.972137 0.471436 0.011536
0.992584 0.482300 0.003052
1.000000 0.486267 0.000000
1.000000 0.486267 0.000000
0.233154 0.077759 0.318909
0.276642 0.100922 0.300842
0.325714 0.127045 0.280396
0.378815 0.155334 0.258331
0.435638 0.185608 0.234711
0.494843 0.217163 0.210083
0.555054 0.249237 0.185028
0.605164 0.275940 0.164185
0.324097 0.126190 0.281067
0.377075 0.154419 0.259064
0.433807 0.184631 0.235474
0.492584 0.215942 0.211029
0.553131 0.248199 0.185822
0.603577 0.275085 0.164856
0.645813 0.297577 0.147278
0.687256 0.319641 0.130035
0.431610 0.183472 0.236359
0.490662 0.214935 0.211792
0.551208 0.247192 0.186615
0.602264 0.274384 0.165405
0.644470 0.296875 0.147827
0.685944 0.318970 0.130585
0.726837 0.340759 0.113586
0.766327 0.361786 0.097137
0.548920 0.245941 0.187592
0.600922 0.273682 0.165955
0.642883 0.296021 0.148499
0.684662 0.318268 0.131134
0.725311 0.339935 0.114227
0.765106 0.361115 0.097687
0.803375 0.381531 0.081726
0.839630 0.400818 0.066681
0.641571 0.295319 0.149048
0.683350 0.317566 0.131653
0.724060 0.339264 0.114746
0.763855 0.360474 0.098175
0.801971 0.380768 0.082336
0.838531 0.400238 0.067139
0.872711 0.418457 0.052917
0.904663 0.435486 0.039642
0.722778 0.338593 0.115265
0.762634 0.359833 0.098694
0.800812 0.380157 0.082825
0.837402 0.399658 0.067596
0.871674 0.417877 0.053345
0.903687 0.434967 0.040039
0.932739 0.450439 0.027954
0.958862 0.464355 0.017090
0.799622 0.379517 0.083313
0.836060 0.398926 0.068146
0.870605 0.417328 0.053772
0.902527 0.434357 0.040497
0.931885 0.449982 0.028320
0.958099 0.463928 0.017395
0.980743 0.476013 0.007996
0.999756 0.486145 0.000061
0.869568 0.416779 0.054199
0.901550 0.433838 0.040924
0.931000 0.449524 0.028656
0.957184 0.463440 0.017792
0.980072 0.475647 0.008270
0.999115 0.485809 0.000336
1.000000 0.486267 0.000000
1.000000 0.486267 0.000000
0.248444 0.085876 0.312561
0.293976 0.110138 0.293610
0.344757 0.137207 0.272491
0.399567 0.166382 0.249695
0.457001 0.196991 0.225800
0.516815 0.228851 0.200928
0.577301 0.261078 0.175781
0.620605 0.284149 0.157776
0.343079 0.136322 0.273163
0.397430 0.165253 0.250580
0.455139 0.196014 0.226593
0.514526 0.227661 0.201874
0.575378 0.260071 0.176575
0.619019 0.283295 0.158417
0.661102 0.305725 0.140930
0.702515 0.327789 0.123688
0.453308 0.195007 0.227356
0.512634 0.226654 0.202667
0.573456 0.259033 0.177368
0.617706 0.282593 0.158966
0.659760 0.305023 0.141479
0.700989 0.326965 0.124329
0.741486 0.348541 0.107483
0.780457 0.369324 0.091278
0.571167 0.257813 0.178314
0.616364 0.281891 0.159515
0.658203 0.304169 0.142120
0.699707 0.326294 0.124878
0.740234 0.347900 0.108002
0.779266 0.368683 0.091766
0.816925 0.388733 0.076111
0.852417 0.407654 0.061340
0.656891 0.303467 0.142670
0.698395 0.325592 0.125427
0.738739 0.347076 0.108643
0.778046 0.368042 0.092285
0.815765 0.388123 0.076599
0.851318 0.407074 0.061798
0.884857 0.424927 0.047852
0.915619 0.441315 0.035065
0.737457 0.346405 0.109161
0.776825 0.367371 0.092773
0.814362 0.387390 0.077179
0.850250 0.406494 0.062256
0.883667 0.424286 0.048370
0.914703 0.440826 0.035461
0.942657 0.455719 0.023834
0.967560 0.468994 0.013458
0.813232 0.386780 0.077637
0.848938 0.405792 0.062805
0.882629 0.423737 0.048798
0.913757 0.440308 0.035828
0.941833 0.455261 0.024170
0.966827 0.468597 0.013763
0.988129 0.479950 0.004913
1.000000 0.486267 0.000000
0.881592 0.423187 0.049194
0.912628 0.439728 0.036316
0.940979 0.454834 0.024506
0.965942 0.468109 0.014130
0.987518 0.479614 0.005157
1.000000 0.486267 0.000000
1.000000 0.486267 0.000000
1.000000 0.486267 0.000000
