Game/res/assets/textures/WARM_LUT.CUBE
#Created by: Adobe Photoshop Export Color Lookup Plugin
TITLE "ceHKyFo.psd"
#LUT size
LUT_3D_SIZE 5
#data domain
#LUT data points
DOMAIN_MIN 0.000000 0.000000 0.000000
DOMAIN_MAX 0.903226 0.903226 0.903226
0.000000 0.000000 0.000000
0.336578 0.000000 0.000000
0.669830 0.000000 0.000000
0.877441 0.000000 0.000000
0.979248 0.000000 0.000000
0.000000 0.184998 0.000000
0.336578 0.184998 0.000000
0.669830 0.184998 0.000000
0.877441 0.184998 0.000000
0.979248 0.184998 0.000000
0.000000 0.490845 0.000000
0.336578 0.490845 0.000000
0.669830 0.490845 0.000000
0.877441 0.490845 0.000000
0.979248 0.490845 0.000000
0.000000 0.800598 0.000000
0.336578 0.800598 0.000000
0.669830 0.800598 0.000000
0.877441 0.800598 0.000000
0.979248 0.800598 0.000000
0.000000 0.968018 0.000000
0.336578 0.968018 0.000000
0.669830 0.968018 0.000000
0.877441 0.968018 0.000000
0.979248 0.968018 0.000000
0.000000 0.000000 0.126892
0.336578 0.000000 0.126892
0.669830 0.000000 0.126892
0.877441 0.000000 0.126892
0.979248 0.000000 0.126892
0.000000 0.184998 0.126892
0.336578 0.184998 0.126892
0.669830 0.184998 0.126892
0.877441 0.184998 0.126892
0.979248 0.184998 0.126892
0.000000 0.490845 0.126892
0.336578 0.490845 0.126892
0.669830 0.490845 0.126892
0.877441 0.490845 0.126892
0.979248 0.490845 0.126892
0.000000 0.800598 0.126892
0.336578 0.800598 0.126892
0.669830 0.800598 0.126892
0.877441 0.800598 0.126892
0.979248 0.800598 0.126892
0.000000 0.968018 0.126892
0.336578 0.968018 0.126892
0.669830 0.968018 0.126892
0.877441 0.968018 0.126892
0.979248 0.968018 0.126892
0.000000 0.000000 0.390564
0.336578 0.000000 0.390564
0.669830 0.000000 0.390564
0.877441 0.000000 0.390564
0.979248 0.000000 0.390564
0.000000 0.184998 0.390564
0.336578 0.184998 0.390564
0.669830 0.184998 0.390564
0.877441 0.184998 0.390564
0.979248 0.184998 0.390564
0.000000 0.490845 0.390564
0.336578 0.490845 0.390564
0.669830 0.490845 0.390564
0.877441 0.490845 0.390564
0.979248 0.490845 0.390564
0.000000 0.800598 0.390564
0.336578 0.800598 0.390564
0.669830 0.800598 0.390564
0.877441 0.800598 0.390564
0.979248 0.800598 0.390564
0.000000 0.968018 0.390564
0.336578 0.968018 0.390564
0.669830 0.968018 0.390564
0.877441 0.968018 0.390564
0.979248 0.968018 0.390564
0.000000 0.000000 0.744629
0.336578 0.000000 0.744629
0.669830 0.000000 0.744629
0.877441 0.000000 0.744629
0.979248 0.000000 0.744629
0.000000 0.184998 0.744629
0.336578 0.184998 0.744629
0.669830 0.184998 0.744629
0.877441 0.184998 0.744629
0.979248 0.184998 0.744629
0.000000 0.490845 0.744629
0.336578 0.490845 0.744629
0.669830 0.490845 0.744629
0.877441 0.490845 0.744629
0.979248 0.490845 0.744629
0.000000 0.800598 0.744629
0.336578 0.800598 0.744629
0.669830 0.800598 0.744629
0.877441 0.800598 0.744629
0.979248 0.800598 0.744629
0.000000 0.968018 0.744629
0.336578 0.968018 0.744629
0.669830 0.968018 0.744629
0.877441 0.968018 0.744629
0.979248 0.968018 0.744629
0.000000 0.000000 0.959808
0.336578 0.000000 0.959808
0.669830 0.000000 0.959808
0.877441 0.000000 0.959808
0.979248 0.000000 0.959808
0.000000 0.184998 0.959808
0.336578 0.184998 0.959808
0.669830 0.184998 0.959808
0.877441 0.184998 0.959808
0.979248 0.184998 0.959808
0.000000 0.490845 0.959808
0.336578 0.490845 0.959808
0.669830 0.490845 0.959808
0.877441 0.490845 0.959808
0.979248 0.490845 0.959808
0.000000 0.800598 0.959808
0.336578 0.800598 0.959808
0.669830 0.800598 0.959808
0.877441 0.800598 0.959808
0.979248 0.800598 0.959808
0.000000 0.968018 0.959808
0.336578 0.968018 0.959808
0.669830 0.968018 0.959808
0.877441 0.968018 0.959808
0.979248 0.968018 0.959808
