Game/res/assets/textures/WARM_LUT.CUBE
#Created by: Adobe Photoshop Export Color Lookup Plugin
TITLE "ceHKyFo.psd"
#LUT size
LUT_3D_SIZE 8
#data domain
#LUT data points
DOMAIN_MIN 0.000000 0.000000 0.000000
DOMAIN_MAX 0.903226 0.903226 0.903226
0.000000 0.000000 0.000000
0.194824 0.000000 0.000000
0.385620 0.000000 0.000000
0.584808 0.000000 0.000000
0.742554 0.000000 0.000000
0.855286 0.000000 0.000000
0.931610 0.000000 0.000000
0.979248 0.000000 0.000000
0.000000 0.090546 0.000000
0.194824 0.090546 0.000000
0.385620 0.090546 0.000000
0.584808 0.090546 0.000000
0.742554 0.090546 0.000000
0.855286 0.090546 0.000000
0.931610 0.090546 0.000000
0.979248 0.090546 0.000000
0.000000 0.221283 0.000000
0.194824 0.221283 0.000000
0.385620 0.221283 0.000000
0.584808 0.221283 0.000000
0.742554 0.221283 0.000000
0.855286 0.221283 0.000000
0.931610 0.221283 0.000000
0.979248 0.221283 0.000000
0.000000 0.390991 0.000000
0.194824 0.390991 0.000000
0.385620 0.390991 0.000000
0.584808 0.390991 0.000000
0.742554 0.390991 0.000000
0.855286 0.390991 0.000000
0.931610 0.390991 0.000000
0.979248 0.390991 0.000000
0.000000 0.592834 0.000000
0.194824 0.592834 0.000000
0.385620 0.592834 0.000000
0.584808 0.592834 0.000000
0.742554 0.592834 0.000000
0.855286 0.592834 0.000000
0.931610 0.592834 0.000000
0.979248 0.592834 0.000000
0.000000 0.764923 0.000000
0.194824 0.764923 0.000000
0.385620 0.764923 0.000000
0.584808 0.764923 0.000000
0.742554 0.764923 0.000000
0.855286 0.764923 0.000000
0.931610 0.764923 0.000000
0.979248 0.764923 0.000000
0.000000 0.889587 0.000000
0.194824 0.889587 0.000000
0.385620 0.889587 0.000000
0.584808 0.889587 0.000000
0.742554 0.889587 0.000000
0.855286 0.889587 0.000000
0.931610 0.889587 0.000000
0.979248 0.889587 0.000000
0.000000 0.968018 0.000000
0.194824 0.968018 0.000000
0.385620 0.968018 0.000000
0.584808 0.968018 0.000000
0.742554 0.968018 0.000000
0.855286 0.968018 0.000000
0.931610 0.968018 0.000000
0.979248 0.968018 0.000000
0.000000 0.000000 0.055908
0.194824 0.000000 0.055908
0.385620 0.000000 0.055908
0.584808 0.000000 0.055908
0.742554 0.000000 0.055908
0.855286 0.000000 0.055908
0.931610 0.000000 0.055908
0.979248 0.000000 0.055908
0.000000 0.090546 0.055908
0.194824 0.090546 0.055908
0.385620 0.090546 0.055908
0.584808 0.090546 0.055908
0.742554 0.090546 0.055908
0.855286 0.090546 0.055908
0.931610 0.090546 0.055908
0.979248 0.090546 0.055908
0.000000 0.221283 0.055908
0.194824 0.221283 0.055908
0.385620 0.221283 0.055908
0.584808 0.221283 0.055908
0.742554 0.221283 0.055908
0.855286 0.221283 0.055908
0.931610 0.221283 0.055908
0.979248 0.221283 0.055908
0.000000 0.390991 0.055908
0.194824 0.390991 0.055908
0.385620 0.390991 0.055908
0.584808 0.390991 0.055908
0.742554 0.390991 0.055908
0.855286 0.390991 0.055908
0.931610 0.390991 0.055908
0.979248 0.390991 0.055908
0.000000 0.592834 0.055908
0.194824 0.592834 0.055908
0.385620 0.592834 0.055908
0.584808 0.592834 0.055908
0.742554 0.592834 0.055908
0.855286 0.592834 0.055908
0.931610 0.592834 0.055908
0.979248 0.592834 0.055908
0.000000 0.764923 0.055908
0.194824 0.764923 0.055908
0.385620 0.764923 0.055908
0.584808 0.764923 0.055908
0.742554 0.764923 0.055908
0.855286 0.764923 0.055908
0.931610 0.764923 0.055908
0.979248 0.764923 0.055908
0.000000 0.889587 0.055908
0.194824 0.889587 0.055908
0.385620 0.889587 0.055908
0.584808 0.889587 0.055908
0.742554 0.889587 0.055908
0.855286 0.889587 0.055908
0.931610 0.889587 0.055908
0.979248 0.889587 0.055908
0.000000 0.968018 0.055908
0.194824 0.968018 0.055908
0.385620 0.968018 0.055908
0.584808 0.968018 0.055908
0.742554 0.968018 0.055908
0.855286 0.968018 0.055908
0.931610 0.968018 0.055908
0.979248 0.968018 0.055908
0.000000 0.000000 0.155823
0.194824 0.000000 0.155823
0.385620 0.000000 0.155823
0.584808 0.000000 0.155823
0.742554 0.000000 0.155823
0.855286 0.000000 0.155823
0.931610 0.000000 0.155823
0.979248 0.000000 0.155823
0.000000 0.090546 0.155823
0.194824 0.090546 0.155823
0.385620 0.090546 0.155823
0.584808 0.090546 0.155823
0.742554 0.090546 0.155823
0.855286 0.090546 0.155823
0.931610 0.090546 0.155823
0.979248 0.090546 0.155823
0.000000 0.221283 0.155823
0.194824 0.221283 0.155823
0.385620 0.221283 0.155823
0.584808 0.221283 0.155823
0.742554 0.221283 0.155823
0.855286 0.221283 0.155823
0.931610 0.221283 0.155823
0.979248 0.221283 0.155823
0.000000 0.390991 0.155823
0.194824 0.390991 0.155823
0.385620 0.390991 0.155823
0.584808 0.390991 0.155823
0.742554 0.390991 0.155823
0.855286 0.390991 0.155823
0.931610 0.390991 0.155823
0.979248 0.390991 0.155823
0.000000 0.592834 0.155823
0.194824 0.592834 0.155823
0.385620 0.592834 0.155823
0.584808 0.592834 0.155823
0.742554 0.592834 0.155823
0.855286 0.592834 0.155823
0.931610 0.592834 0.155823
0.979248 0.592834 0.155823
0.000000 0.764923 0.155823
0.194824 0.764923 0.155823
0.385620 0.764923 0.155823
0.584808 0.764923 0.155823
0.742554 0.764923 0.155823
0.855286 0.764923 0.155823
0.931610 0.764923 0.155823
0.979248 0.764923 0.155823
0.000000 0.889587 0.155823
0.194824 0.889587 0.155823
0.385620 0.889587 0.155823
0.584808 0.889587 0.155823
0.742554 0.889587 0.155823
0.855286 0.889587 0.155823
0.931610 0.889587 0.155823
0.979248 0.889587 0.155823
0.000000 0.968018 0.155823
0.194824 0.968018 0.155823
0.385620 0.968018 0.155823
0.584808 0.968018 0.155823
0.742554 0.968018 0.155823
0.855286 0.968018 0.155823
0.931610 0.968018 0.155823
0.979248 0.968018 0.155823
0.000000 0.000000 0.300110
0.194824 0.000000 0.300110
0.385620 0.000000 0.300110
0.584808 0.000000 0.300110
0.742554 0.000000 0.300110
0.855286 0.000000 0.300110
0.931610 0.000000 0.300110
0.979248 0.000000 0.300110
0.000000 0.090546 0.300110
0.194824 0.090546 0.300110
0.385620 0.090546 0.300110
0.584808 0.090546 0.300110
0.742554 0.090546 0.300110
0.855286 0.090546 0.300110
0.931610 0.090546 0.300110
0.979248 0.090546 0.300110
0.000000 0.221283 0.300110
0.194824 0.221283 0.300110
0.385620 0.221283 0.300110
0.584808 0.221283 0.300110
0.742554 0.221283 0.300110
0.855286 0.221283 0.300110
0.931610 0.221283 0.300110
0.979248 0.221283 0.300110
0.000000 0.390991 0.300110
0.194824 0.390991 0.300110
0.385620 0.390991 0.300110
0.584808 0.390991 0.300110
0.742554 0.390991 0.300110
0.855286 0.390991 0.300110
0.931610 0.390991 0.300110
0.979248 0.390991 0.300110
0.000000 0.592834 0.300110
0.194824 0.592834 0.300110
0.385620 0.592834 0.300110
0.584808 0.592834 0.300110
0.742554 0.592834 0.300110
0.855286 0.592834 0.300110
0.931610 0.592834 0.300110
0.979248 0.592834 0.300110
0.000000 0.764923 0.300110
0.194824 0.764923 0.300110
0.385620 0.764923 0.300110
0.584808 0.764923 0.300110
0.742554 0.764923 0.300110
0.855286 0.764923 0.300110
0.931610 0.764923 0.300110
0.979248 0.764923 0.300110
0.000000 0.889587 0.300110
0.194824 0.889587 0.300110
0.385620 0.889587 0.300110
0.584808 0.889587 0.300110
0.742554 0.889587 0.300110
0.855286 0.889587 0.300110
0.931610 0.889587 0.300110
0.979248 0.889587 0.300110
0.000000 0.968018 0.300110
0.194824 0.968018 0.300110
0.385620 0.968018 0.300110
0.584808 0.968018 0.300110
0.742554 0.968018 0.300110
0.855286 0.968018 0.300110
0.931610 0.968018 0.300110
0.979248 0.968018 0.300110
0.000000 0.000000 0.494354
0.194824 0.000000 0.494354
0.385620 0.000000 0.494354
0.584808 0.000000 0.494354
0.742554 0.000000 0.494354
0.855286 0.000000 0.494354
0.931610 0.000000 0.494354
0.979248 0.000000 0.494354
0.000000 0.090546 0.494354
0.194824 0.090546 0.494354
0.385620 0.090546 0.494354
0.584808 0.090546 0.494354
0.742554 0.090546 0.494354
0.855286 0.090546 0.494354
0.931610 0.090546 0.494354
0.979248 0.090546 0.494354
0.000000 0.221283 0.494354
0.194824 0.221283 0.494354
0.385620 0.221283 0.494354
0.584808 0.221283 0.494354
0.742554 0.221283 0.494354
0.855286 0.221283 0.494354
0.931610 0.221283 0.494354
0.979248 0.221283 0.494354
0.000000 0.390991 0.494354
0.194824 0.390991 0.494354
0.385620 0.390991 0.494354
0.584808 0.390991 0.494354
0.742554 0.390991 0.494354
0.855286 0.390991 0.494354
0.931610 0.390991 0.494354
0.979248 0.390991 0.494354
0.000000 0.592834 0.494354
0.194824 0.592834 0.494354
0.385620 0.592834 0.494354
0.584808 0.592834 0.494354
0.742554 0.592834 0.494354
0.855286 0.592834 0.494354
0.931610 0.592834 0.494354
0.979248 0.592834 0.494354
0.000000 0.764923 0.494354
0.194824 0.764923 0.494354
0.385620 0.764923 0.494354
0.584808 0.764923 0.494354
0.742554 0.764923 0.494354
0.855286 0.764923 0.494354
0.931610 0.764923 0.494354
0.979248 0.764923 0.494354
0.000000 0.889587 0.494354
0.194824 0.889587 0.494354
0.385620 0.889587 0.494354
0.584808 0.889587 0.494354
0.742554 0.889587 0.494354
0.855286 0.889587 0.494354
0.931610 0.889587 0.494354
0.979248 0.889587 0.494354
0.000000 0.968018 0.494354
0.194824 0.968018 0.494354
0.385620 0.968018 0.494354
0.584808 0.968018 0.494354
0.742554 0.968018 0.494354
0.855286 0.968018 0.494354
0.931610 0.968018 0.494354
0.979248 0.968018 0.494354
0.000000 0.000000 0.700043
0.194824 0.000000 0.700043
0.385620 0.000000 0.700043
0.584808 0.000000 0.700043
0.742554 0.000000 0.700043
0.855286 0.000000 0.700043
0.931610 0.000000 0.700043
0.979248 0.000000 0.700043
0.000000 0.090546 0.700043
0.194824 0.090546 0.700043
0.385620 0.090546 0.700043
0.584808 0.090546 0.700043
0.742554 0.090546 0.700043
0.855286 0.090546 0.700043
0.931610 0.090546 0.700043
0.979248 0.090546 0.700043
0.000000 0.221283 0.700043
0.194824 0.221283 0.700043
0.385620 0.221283 0.700043
0.584808 0.221283 0.700043
0.742554 0.221283 0.700043
0.855286 0.221283 0.700043
0.931610 0.221283 0.700043
0.979248 0.221283 0.700043
0.000000 0.390991 0.700043
0.194824 0.390991 0.700043
0.385620 0.390991 0.700043
0.584808 0.390991 0.700043
0.742554 0.390991 0.700043
0.855286 0.390991 0.700043
0.931610 0.390991 0.700043
0.979248 0.390991 0.700043
0.000000 0.592834 0.700043
0.194824 0.592834 0.700043
0.385620 0.592834 0.700043
0.584808 0.592834 0.700043
0.742554 0.592834 0.700043
0.855286 0.592834 0.700043
0.931610 0.592834 0.700043
0.979248 0.592834 0.700043
0.000000 0.764923 0.700043
0.194824 0.764923 0.700043
0.385620 0.764923 0.700043
0.584808 0.764923 0.700043
0.742554 0.764923 0.700043
0.855286 0.764923 0.700043
0.931610 0.764923 0.700043
0.979248 0.764923 0.700043
0.000000 0.889587 0.700043
0.194824 0.889587 0.700043
0.385620 0.889587 0.700043
0.584808 0.889587 0.700043
0.742554 0.889587 0.700043
0.855286 0.889587 0.700043
0.931610 0.889587 0.700043
0.979248 0.889587 0.700043
0.000000 0.968018 0.700043
0.194824 0.968018 0.700043
0.385620 0.968018 0.700043
0.584808 0.968018 0.700043
0.742554 0.968018 0.700043
0.855286 0.968018 0.700043
0.931610 0.968018 0.700043
0.979248 0.968018 0.700043
0.000000 0.000000 0.858154
0.194824 0.000000 0.858154
0.385620 0.000000 0.858154
0.584808 0.000000 0.858154
0.742554 0.000000 0.858154
0.855286 0.000000 0.858154
0.931610 0.000000 0.858154
0.979248 0.000000 0.858154
0.000000 0.090546 0.858154
0.194824 0.090546 0.858154
0.385620 0.090546 0.858154
0.584808 0.090546 0.858154
0.742554 0.090546 0.858154
0.855286 0.090546 0.858154
0.931610 0.090546 0.858154
0.979248 0.090546 0.858154
0.000000 0.221283 0.858154
0.194824 0.221283 0.858154
0.385620 0.221283 0.858154
0.584808 0.221283 0.858154
0.742554 0.221283 0.858154
0.855286 0.221283 0.858154
0.931610 0.221283 0.858154
0.979248 0.221283 0.858154
0.000000 0.390991 0.858154
0.194824 0.390991 0.858154
0.385620 0.390991 0.858154
0.584808 0.390991 0.858154
0.742554 0.390991 0.858154
0.855286 0.390991 0.858154
0.931610 0.390991 0.858154
0.979248 0.390991 0.858154
0.000000 0.592834 0.858154
0.194824 0.592834 0.858154
0.385620 0.592834 0.858154
0.584808 0.592834 0.858154
0.742554 0.592834 0.858154
0.855286 0.592834 0.858154
0.931610 0.592834 0.858154
0.979248 0.592834 0.858154
0.000000 0.764923 0.858154
0.194824 0.764923 0.858154
0.385620 0.764923 0.858154
0.584808 0.764923 0.858154
0.742554 0.764923 0.858154
0.855286 0.764923 0.858154
0.931610 0.764923 0.858154
0.979248 0.764923 0.858154
0.000000 0.889587 0.858154
0.194824 0.889587 0.858154
0.385620 0.889587 0.858154
0.584808 0.889587 0.858154
0.742554 0.889587 0.858154
0.855286 0.889587 0.858154
0.931610 0.889587 0.858154
0.979248 0.889587 0.858154
0.000000 0.968018 0.858154
0.194824 0.968018 0.858154
0.385620 0.968018 0.858154
0.584808 0.968018 0.858154
0.742554 0.968018 0.858154
0.855286 0.968018 0.858154
0.931610 0.968018 0.858154
0.979248 0.968018 0.858154
0.000000 0.000000 0.959808
0.194824 0.000000 0.959808
0.385620 0.000000 0.959808
0.584808 0.000000 0.959808
0.742554 0.000000 0.959808
0.855286 0.000000 0.959808
0.931610 0.000000 0.959808
0.979248 0.000000 0.959808
0.000000 0.090546 0.959808
0.194824 0.090546 0.959808
0.385620 0.090546 0.959808
0.584808 0.090546 0.959808
0.742554 0.090546 0.959808
0.855286 0.090546 0.959808
0.931610 0.090546 0.959808
0.979248 0.090546 0.959808
0.000000 0.221283 0.959808
0.194824 0.221283 0.959808
0.385620 0.221283 0.959808
0.584808 0.221283 0.959808
0.742554 0.221283 0.959808
0.855286 0.221283 0.959808
0.931610 0.221283 0.959808
0.979248 0.221283 0.959808
0.000000 0.390991 0.959808
0.194824 0.390991 0.959808
0.385620 0.390991 0.959808
0.584808 0.390991 0.959808
0.742554 0.390991 0.959808
0.855286 0.390991 0.959808
0.931610 0.390991 0.959808
0.979248 0.390991 0.959808
0.000000 0.592834 0.959808
0.194824 0.592834 0.959808
0.385620 0.592834 0.959808
0.584808 0.592834 0.959808
0.742554 0.592834 0.959808
0.855286 0.592834 0.959808
0.931610 0.592834 0.959808
0.979248 0.592834 0.959808
0.000000 0.764923 0.959808
0.194824 0.764923 0.959808
0.385620 0.764923 0.959808
0.584808 0.764923 0.959808
0.742554 0.764923 0.959808
0.855286 0.764923 0.959808
0.931610 0.764923 0.959808
0.979248 0.764923 0.959808
0.000000 0.889587 0.959808
0.194824 0.889587 0.959808
0.385620 0.889587 0.959808
0.584808 0.889587 0.959808
0.742554 0.889587 0.959808
0.855286 0.889587 0.959808
0.931610 0.889587 0.959808
0.979248 0.889587 0.959808
0.000000 0.968018 0.959808
0.194824 0.968018 0.959808
0.385620 0.968018 0.959808
0.584808 0.968018 0.959808
0.742554 0.968018 0.959808
0.855286 0.968018 0.959808
0.931610 0.968018 0.959808
0.979248 0.968018 0.959808
