Game/res/assets/textures/WARM_LUT.CUBE
#Created by: Adobe Photoshop Export Color Lookup Plugin
TITLE "ceHKyFo.psd"
#LUT size
LUT_3D_SIZE 32
#data domain
DOMAIN_MIN 0.0 0.0 0.0
DOMAIN_MAX 1.0 1.0 1.0
#LUT data points
0.000000 0.000000 0.000000
0.056488 0.000000 0.000000
0.103485 0.000000 0.000000
0.149078 0.000000 0.000000
0.194824 0.000000 0.000000
0.241241 0.000000 0.000000
0.288452 0.000000 0.000000
0.336578 0.000000 0.000000
0.385620 0.000000 0.000000
0.435638 0.000000 0.000000
0.486664 0.000000 0.000000
0.537415 0.000000 0.000000
0.584808 0.000000 0.000000
0.628876 0.000000 0.000000
0.669830 0.000000 0.000000
0.707642 0.000000 0.000000
0.742554 0.000000 0.000000
0.774597 0.000000 0.000000
0.803986 0.000000 0.000000
0.830841 0.000000 0.000000
0.855286 0.000000 0.000000
0.877441 0.000000 0.000000
0.897491 0.000000 0.000000
0.915497 0.000000 0.000000
0.931610 0.000000 0.000000
0.945923 0.000000 0.000000
0.958557 0.000000 0.000000
0.969635 0.000000 0.000000
0.979248 0.000000 0.000000
0.987457 0.000000 0.000000
0.994354 0.000000 0.000000
1.000000 0.000000 0.000000
0.000000 0.017975 0.000000
0.056488 0.017975 0.000000
0.103485 0.017975 0.000000
0.149078 0.017975 0.000000
0.194824 0.017975 0.000000
0.241241 0.017975 0.000000
0.288452 0.017975 0.000000
0.336578 0.017975 0.000000
0.385620 0.017975 0.000000
0.435638 0.017975 0.000000
0.486664 0.017975 0.000000
0.537415 0.017975 0.000000
0.584808 0.017975 0.000000
0.628876 0.017975 0.000000
0.669830 0.017975 0.000000
0.707642 0.017975 0.000000
0.742554 0.017975 0.000000
0.774597 0.017975 0.000000
0.803986 0.017975 0.000000
0.830841 0.017975 0.000000
0.855286 0.017975 0.000000
0.877441 0.017975 0.000000
0.897491 0.017975 0.000000
0.915497 0.017975 0.000000
0.931610 0.017975 0.000000
0.945923 0.017975 0.000000
0.958557 0.017975 0.000000
0.969635 0.017975 0.000000
0.979248 0.017975 0.000000
0.987457 0.017975 0.000000
0.994354 0.017975 0.000000
1.000000 0.017975 0.000000
0.000000 0.039612 0.000000
0.056488 0.039612 0.000000
0.103485 0.039612 0.000000
0.149078 0.039612 0.000000
0.194824 0.039612 0.000000
0.241241 0.039612 0.000000
0.288452 0.039612 0.000000
0.336578 0.039612 0.000000
0.385620 0.039612 0.000000
0.435638 0.039612 0.000000
0.486664 0.039612 0.000000
0.537415 0.039612 0.000000
0.584808 0.039612 0.000000
0.628876 0.039612 0.000000
0.669830 0.039612 0.000000
0.707642 0.039612 0.000000
0.742554 0.039612 0.000000
0.774597 0.039612 0.000000
0.803986 0.039612 0.000000
0.830841 0.039612 0.000000
0.855286 0.039612 0.000000
0.877441 0.039612 0.000000
0.897491 0.039612 0.000000
0.915497 0.039612 0.000000
0.931610 0.039612 0.000000
0.945923 0.039612 0.000000
0.958557 0.039612 0.000000
0.969635 0.039612 0.000000
0.979248 0.039612 0.000000
0.987457 0.039612 0.000000
0.994354 0.039612 0.000000
1.000000 0.039612 0.000000
0.000000 0.063843 0.000000
0.056488 0.063843 0.000000
0.103485 0.063843 0.000000
0.149078 0.063843 0.000000
0.194824 0.063843 0.000000
0.241241 0.063843 0.000000
0.288452 0.063843 0.000000
0.336578 0.063843 0.000000
0.385620 0.063843 0.000000
0.435638 0.063843 0.000000
0.486664 0.063843 0.000000
0.537415 0.063843 0.000000
0.584808 0.063843 0.000000
0.628876 0.063843 0.000000
0.669830 0.063843 0.000000
0.707642 0.063843 0.000000
0.742554 0.063843 0.000000
0.774597 0.063843 0.000000
0.803986 0.063843 0.000000
0.830841 0.063843 0.000000
0.855286 0.063843 0.000000
0.877441 0.063843 0.000000
0.897491 0.063843 0.000000
0.915497 0.063843 0.000000
0.931610 0.063843 0.000000
0.945923 0.063843 0.000000
0.958557 0.063843 0.000000
0.969635 0.063843 0.000000
0.979248 0.063843 0.000000
0.987457 0.063843 0.000000
0.994354 0.063843 0.000000
1.000000 0.063843 0.000000
0.000000 0.090546 0.000000
0.056488 0.090546 0.000000
0.103485 0.090546 0.000000
0.149078 0.090546 0.000000
0.194824 0.090546 0.000000
0.241241 0.090546 0.000000
0.288452 0.090546 0.000000
0.336578 0.090546 0.000000
0.385620 0.090546 0.000000
0.435638 0.090546 0.000000
0.486664 0.090546 0.000000
0.537415 0.090546 0.000000
0.584808 0.090546 0.000000
0.628876 0.090546 0.000000
0.669830 0.090546 0.000000
0.707642 0.090546 0.000000
0.742554 0.090546 0.000000
0.774597 0.090546 0.000000
0.803986 0.090546 0.000000
0.830841 0.090546 0.000000
0.855286 0.090546 0.000000
0.877441 0.090546 0.000000
0.897491 0.090546 0.000000
0.915497 0.090546 0.000000
0.931610 0.090546 0.000000
0.945923 0.090546 0.000000
0.958557 0.090546 0.000000
0.969635 0.090546 0.000000
0.979248 0.090546 0.000000
0.987457 0.090546 0.000000
0.994354 0.090546 0.000000
1.000000 0.090546 0.000000
0.000000 0.119598 0.000000
0.056488 0.119598 0.000000
0.103485 0.119598 0.000000
0.149078 0.119598 0.000000
0.194824 0.119598 0.000000
0.241241 0.119598 0.000000
0.288452 0.119598 0.000000
0.336578 0.119598 0.000000
0.385620 0.119598 0.000000
0.435638 0.119598 0.000000
0.486664 0.119598 0.000000
0.537415 0.119598 0.000000
0.584808 0.119598 0.000000
0.628876 0.119598 0.000000
0.669830 0.119598 0.000000
0.707642 0.119598 0.000000
0.742554 0.119598 0.000000
0.774597 0.119598 0.000000
0.803986 0.119598 0.000000
0.830841 0.119598 0.000000
0.855286 0.119598 0.000000
0.877441 0.119598 0.000000
0.897491 0.119598 0.000000
0.915497 0.119598 0.000000
0.931610 0.119598 0.000000
0.945923 0.119598 0.000000
0.958557 0.119598 0.000000
0.969635 0.119598 0.000000
0.979248 0.119598 0.000000
0.987457 0.119598 0.000000
0.994354 0.119598 0.000000
1.000000 0.119598 0.000000
0.000000 0.151093 0.000000
0.056488 0.151093 0.000000
0.103485 0.151093 0.000000
0.149078 0.151093 0.000000
0.194824 0.151093 0.000000
0.241241 0.151093 0.000000
0.288452 0.151093 0.000000
0.336578 0.151093 0.000000
0.385620 0.151093 0.000000
0.435638 0.151093 0.000000
0.486664 0.151093 0.000000
0.537415 0.151093 0.000000
0.584808 0.151093 0.000000
0.628876 0.151093 0.000000
0.669830 0.151093 0.000000
0.707642 0.151093 0.000000
0.742554 0.151093 0.000000
0.774597 0.151093 0.000000
0.803986 0.151093 0.000000
0.830841 0.151093 0.000000
0.855286 0.151093 0.000000
0.877441 0.151093 0.000000
0.897491 0.151093 0.000000
0.915497 0.151093 0.000000
0.931610 0.151093 0.000000
0.945923 0.151093 0.000000
0.958557 0.151093 0.000000
0.969635 0.151093 0.000000
0.979248 0.151093 0.000000
0.987457 0.151093 0.000000
0.994354 0.151093 0.000000
1.000000 0.151093 0.000000
0.000000 0.184998 0.000000
0.056488 0.184998 0.000000
0.103485 0.184998 0.000000
0.149078 0.184998 0.000000
0.194824 0.184998 0.000000
0.241241 0.184998 0.000000
0.288452 0.184998 0.000000
0.336578 0.184998 0.000000
0.385620 0.184998 0.000000
0.435638 0.184998 0.000000
0.486664 0.184998 0.000000
0.537415 0.184998 0.000000
0.584808 0.184998 0.000000
0.628876 0.184998 0.000000
0.669830 0.184998 0.000000
0.707642 0.184998 0.000000
0.742554 0.184998 0.000000
0.774597 0.184998 0.000000
0.803986 0.184998 0.000000
0.830841 0.184998 0.000000
0.855286 0.184998 0.000000
0.877441 0.184998 0.000000
0.897491 0.184998 0.000000
0.915497 0.184998 0.000000
0.931610 0.184998 0.000000
0.945923 0.184998 0.000000
0.958557 0.184998 0.000000
0.969635 0.184998 0.000000
0.979248 0.184998 0.000000
0.987457 0.184998 0.000000
0.994354 0.184998 0.000000
1.000000 0.184998 0.000000
0.000000 0.221283 0.000000
0.056488 0.221283 0.000000
0.103485 0.221283 0.000000
0.149078 0.221283 0.000000
0.194824 0.221283 0.000000
0.241241 0.221283 0.000000
0.288452 0.221283 0.000000
0.336578 0.221283 0.000000
0.385620 0.221283 0.000000
0.435638 0.221283 0.000000
0.486664 0.221283 0.000000
0.537415 0.221283 0.000000
0.584808 0.221283 0.000000
0.628876 0.221283 0.000000
0.669830 0.221283 0.000000
0.707642 0.221283 0.000000
0.742554 0.221283 0.000000
0.774597 0.221283 0.000000
0.803986 0.221283 0.000000
0.830841 0.221283 0.000000
0.855286 0.221283 0.000000
0.877441 0.221283 0.000000
0.897491 0.221283 0.000000
0.915497 0.221283 0.000000
0.931610 0.221283 0.000000
0.945923 0.221283 0.000000
0.958557 0.221283 0.000000
0.969635 0.221283 0.000000
0.979248 0.221283 0.000000
0.987457 0.221283 0.000000
0.994354 0.221283 0.000000
1.000000 0.221283 0.000000
0.000000 0.260010 0.000000
0.056488 0.260010 0.000000
0.103485 0.260010 0.000000
0.149078 0.260010 0.000000
0.194824 0.260010 0.000000
0.241241 0.260010 0.000000
0.288452 0.260010 0.000000
0.336578 0.260010 0.000000
0.385620 0.260010 0.000000
0.435638 0.260010 0.000000
0.486664 0.260010 0.000000
0.537415 0.260010 0.000000
0.584808 0.260010 0.000000
0.628876 0.260010 0.000000
0.669830 0.260010 0.000000
0.707642 0.260010 0.000000
0.742554 0.260010 0.000000
0.774597 0.260010 0.000000
0.803986 0.260010 0.000000
0.830841 0.260010 0.000000
0.855286 0.260010 0.000000
0.877441 0.260010 0.000000
0.897491 0.260010 0.000000
0.915497 0.260010 0.000000
0.931610 0.260010 0.000000
0.945923 0.260010 0.000000
0.958557 0.260010 0.000000
0.969635 0.260010 0.000000
0.979248 0.260010 0.000000
0.987457 0.260010 0.000000
0.994354 0.260010 0.000000
1.000000 0.260010 0.000000
0.000000 0.301208 0.000000
0.056488 0.301208 0.000000
0.103485 0.301208 0.000000
0.149078 0.301208 0.000000
0.194824 0.301208 0.000000
0.241241 0.301208 0.000000
0.288452 0.301208 0.000000
0.336578 0.301208 0.000000
0.385620 0.301208 0.000000
0.435638 0.301208 0.000000
0.486664 0.301208 0.000000
0.537415 0.301208 0.000000
0.584808 0.301208 0.000000
0.628876 0.301208 0.000000
0.669830 0.301208 0.000000
0.707642 0.301208 0.000000
0.742554 0.301208 0.000000
0.774597 0.301208 0.000000
0.803986 0.301208 0.000000
0.830841 0.301208 0.000000
0.855286 0.301208 0.000000
0.877441 0.301208 0.000000
0.897491 0.301208 0.000000
0.915497 0.301208 0.000000
0.931610 0.301208 0.000000
0.945923 0.301208 0.000000
0.958557 0.301208 0.000000
0.969635 0.301208 0.000000
0.979248 0.301208 0.000000
0.987457 0.301208 0.000000
0.994354 0.301208 0.000000
1.000000 0.301208 0.000000
0.000000 0.344818 0.000000
0.056488 0.344818 0.000000
0.103485 0.344818 0.000000
0.149078 0.344818 0.000000
0.194824 0.344818 0.000000
0.241241 0.344818 0.000000
0.288452 0.344818 0.000000
0.336578 0.344818 0.000000
0.385620 0.344818 0.000000
0.435638 0.344818 0.000000
0.486664 0.344818 0.000000
0.537415 0.344818 0.000000
0.584808 0.344818 0.000000
0.628876 0.344818 0.000000
0.669830 0.344818 0.000000
0.707642 0.344818 0.000000
0.742554 0.344818 0.000000
0.774597 0.344818 0.000000
0.803986 0.344818 0.000000
0.830841 0.344818 0.000000
0.855286 0.344818 0.000000
0.877441 0.344818 0.000000
0.897491 0.344818 0.000000
0.915497 0.344818 0.000000
0.931610 0.344818 0.000000
0.945923 0.344818 0.000000
0.958557 0.344818 0.000000
0.969635 0.344818 0.000000
0.979248 0.344818 0.000000
0.987457 0.344818 0.000000
0.994354 0.344818 0.000000
1.000000 0.344818 0.000000
0.000000 0.390991 0.000000
0.056488 0.390991 0.000000
0.103485 0.390991 0.000000
0.149078 0.390991 0.000000
0.194824 0.390991 0.000000
0.241241 0.390991 0.000000
0.288452 0.390991 0.000000
0.336578 0.390991 0.000000
0.385620 0.390991 0.000000
0.435638 0.390991 0.000000
0.486664 0.390991 0.000000
0.537415 0.390991 0.000000
0.584808 0.390991 0.000000
0.628876 0.390991 0.000000
0.669830 0.390991 0.000000
0.707642 0.390991 0.000000
0.742554 0.390991 0.000000
0.774597 0.390991 0.000000
0.803986 0.390991 0.000000
0.830841 0.390991 0.000000
0.855286 0.390991 0.000000
0.877441 0.390991 0.000000
0.897491 0.390991 0.000000
0.915497 0.390991 0.000000
0.931610 0.390991 0.000000
0.945923 0.390991 0.000000
0.958557 0.390991 0.000000
0.969635 0.390991 0.000000
0.979248 0.390991 0.000000
0.987457 0.390991 0.000000
0.994354 0.390991 0.000000
1.000000 0.390991 0.000000
0.000000 0.439667 0.000000
0.056488 0.439667 0.000000
0.103485 0.439667 0.000000
0.149078 0.439667 0.000000
0.194824 0.439667 0.000000
0.241241 0.439667 0.000000
0.288452 0.439667 0.000000
0.336578 0.439667 0.000000
0.385620 0.439667 0.000000
0.435638 0.439667 0.000000
0.486664 0.439667 0.000000
0.537415 0.439667 0.000000
0.584808 0.439667 0.000000
0.628876 0.439667 0.000000
0.669830 0.439667 0.000000
0.707642 0.439667 0.000000
0.742554 0.439667 0.000000
0.774597 0.439667 0.000000
0.803986 0.439667 0.000000
0.830841 0.439667 0.000000
0.855286 0.439667 0.000000
0.877441 0.439667 0.000000
0.897491 0.439667 0.000000
0.915497 0.439667 0.000000
0.931610 0.439667 0.000000
0.945923 0.439667 0.000000
0.958557 0.439667 0.000000
0.969635 0.439667 0.000000
0.979248 0.439667 0.000000
0.987457 0.439667 0.000000
0.994354 0.439667 0.000000
1.000000 0.439667 0.000000
0.000000 0.490845 0.000000
0.056488 0.490845 0.000000
0.103485 0.490845 0.000000
0.149078 0.490845 0.000000
0.194824 0.490845 0.000000
0.241241 0.490845 0.000000
0.288452 0.490845 0.000000
0.336578 0.490845 0.000000
0.385620 0.490845 0.000000
0.435638 0.490845 0.000000
0.486664 0.490845 0.000000
0.537415 0.490845 0.000000
0.584808 0.490845 0.000000
0.628876 0.490845 0.000000
0.669830 0.490845 0.000000
0.707642 0.490845 0.000000
0.742554 0.490845 0.000000
0.774597 0.490845 0.000000
0.803986 0.490845 0.000000
0.830841 0.490845 0.000000
0.855286 0.490845 0.000000
0.877441 0.490845 0.000000
0.897491 0.490845 0.000000
0.915497 0.490845 0.000000
0.931610 0.490845 0.000000
0.945923 0.490845 0.000000
0.958557 0.490845 0.000000
0.969635 0.490845 0.000000
0.979248 0.490845 0.000000
0.987457 0.490845 0.000000
0.994354 0.490845 0.000000
1.000000 0.490845 0.000000
0.000000 0.542969 0.000000
0.056488 0.542969 0.000000
0.103485 0.542969 0.000000
0.149078 0.542969 0.000000
0.194824 0.542969 0.000000
0.241241 0.542969 0.000000
0.288452 0.542969 0.000000
0.336578 0.542969 0.000000
0.385620 0.542969 0.000000
0.435638 0.542969 0.000000
0.486664 0.542969 0.000000
0.537415 0.542969 0.000000
0.584808 0.542969 0.000000
0.628876 0.542969 0.000000
0.669830 0.542969 0.000000
0.707642 0.542969 0.000000
0.742554 0.542969 0.000000
0.774597 0.542969 0.000000
0.803986 0.542969 0.000000
0.830841 0.542969 0.000000
0.855286 0.542969 0.000000
0.877441 0.542969 0.000000
0.897491 0.542969 0.000000
0.915497 0.542969 0.000000
0.931610 0.542969 0.000000
0.945923 0.542969 0.000000
0.958557 0.542969 0.000000
0.969635 0.542969 0.000000
0.979248 0.542969 0.000000
0.987457 0.542969 0.000000
0.994354 0.542969 0.000000
1.000000 0.542969 0.000000
0.000000 0.592834 0.000000
0.056488 0.592834 0.000000
0.103485 0.592834 0.000000
0.149078 0.592834 0.000000
0.194824 0.592834 0.000000
0.241241 0.592834 0.000000
0.288452 0.592834 0.000000
0.336578 0.592834 0.000000
0.385620 0.592834 0.000000
0.435638 0.592834 0.000000
0.486664 0.592834 0.000000
0.537415 0.592834 0.000000
0.584808 0.592834 0.000000
0.628876 0.592834 0.000000
0.669830 0.592834 0.000000
0.707642 0.592834 0.000000
0.742554 0.592834 0.000000
0.774597 0.592834 0.000000
0.803986 0.592834 0.000000
0.830841 0.592834 0.000000
0.855286 0.592834 0.000000
0.877441 0.592834 0.000000
0.897491 0.592834 0.000000
0.915497 0.592834 0.000000
0.931610 0.592834 0.000000
0.945923 0.592834 0.000000
0.958557 0.592834 0.000000
0.969635 0.592834 0.000000
0.979248 0.592834 0.000000
0.987457 0.592834 0.000000
0.994354 0.592834 0.000000
1.000000 0.592834 0.000000
0.000000 0.640045 0.000000
0.056488 0.640045 0.000000
0.103485 0.640045 0.000000
0.149078 0.640045 0.000000
0.194824 0.640045 0.000000
0.241241 0.640045 0.000000
0.288452 0.640045 0.000000
0.336578 0.640045 0.000000
0.385620 0.640045 0.000000
0.435638 0.640045 0.000000
0.486664 0.640045 0.000000
0.537415 0.640045 0.000000
0.584808 0.640045 0.000000
0.628876 0.640045 0.000000
0.669830 0.640045 0.000000
0.707642 0.640045 0.000000
0.742554 0.640045 0.000000
0.774597 0.640045 0.000000
0.803986 0.640045 0.000000
0.830841 0.640045 0.000000
0.855286 0.640045 0.000000
0.877441 0.640045 0.000000
0.897491 0.640045 0.000000
0.915497 0.640045 0.000000
0.931610 0.640045 0.000000
0.945923 0.640045 0.000000
0.958557 0.640045 0.000000
0.969635 0.640045 0.000000
0.979248 0.640045 0.000000
0.987457 0.640045 0.000000
0.994354 0.640045 0.000000
1.000000 0.640045 0.000000
0.000000 0.684540 0.000000
0.056488 0.684540 0.000000
0.103485 0.684540 0.000000
0.149078 0.684540 0.000000
0.194824 0.684540 0.000000
0.241241 0.684540 0.000000
0.288452 0.684540 0.000000
0.336578 0.684540 0.000000
0.385620 0.684540 0.000000
0.435638 0.684540 0.000000
0.486664 0.684540 0.000000
0.537415 0.684540 0.000000
0.584808 0.684540 0.000000
0.628876 0.684540 0.000000
0.669830 0.684540 0.000000
0.707642 0.684540 0.000000
0.742554 0.684540 0.000000
0.774597 0.684540 0.000000
0.803986 0.684540 0.000000
0.830841 0.684540 0.000000
0.855286 0.684540 0.000000
0.877441 0.684540 0.000000
0.897491 0.684540 0.000000
0.915497 0.684540 0.000000
0.931610 0.684540 0.000000
0.945923 0.684540 0.000000
0.958557 0.684540 0.000000
0.969635 0.684540 0.000000
0.979248 0.684540 0.000000
0.987457 0.684540 0.000000
0.994354 0.684540 0.000000
1.000000 0.684540 0.000000
0.000000 0.726227 0.000000
0.056488 0.726227 0.000000
0.103485 0.726227 0.000000
0.149078 0.726227 0.000000
0.194824 0.726227 0.000000
0.241241 0.726227 0.000000
0.288452 0.726227 0.000000
0.336578 0.726227 0.000000
0.385620 0.726227 0.000000
0.435638 0.726227 0.000000
0.486664 0.726227 0.000000
0.537415 0.726227 0.000000
0.584808 0.726227 0.000000
0.628876 0.726227 0.000000
0.669830 0.726227 0.000000
0.707642 0.726227 0.000000
0.742554 0.726227 0.000000
0.774597 0.726227 0.000000
0.803986 0.726227 0.000000
0.830841 0.726227 0.000000
0.855286 0.726227 0.000000
0.877441 0.726227 0.000000
0.897491 0.726227 0.000000
0.915497 0.726227 0.000000
0.931610 0.726227 0.000000
0.945923 0.726227 0.000000
0.958557 0.726227 0.000000
0.969635 0.726227 0.000000
0.979248 0.726227 0.000000
0.987457 0.726227 0.000000
0.994354 0.726227 0.000000
1.000000 0.726227 0.000000
0.000000 0.764923 0.000000
0.056488 0.764923 0.000000
0.103485 0.764923 0.000000
0.149078 0.764923 0.000000
0.194824 0.764923 0.000000
0.241241 0.764923 0.000000
0.288452 0.764923 0.000000
0.336578 0.764923 0.000000
0.385620 0.764923 0.000000
0.435638 0.764923 0.000000
0.486664 0.764923 0.000000
0.537415 0.764923 0.000000
0.584808 0.764923 0.000000
0.628876 0.764923 0.000000
0.669830 0.764923 0.000000
0.707642 0.764923 0.000000
0.742554 0.764923 0.000000
0.774597 0.764923 0.000000
0.803986 0.764923 0.000000
0.830841 0.764923 0.000000
0.855286 0.764923 0.000000
0.877441 0.764923 0.000000
0.897491 0.764923 0.000000
0.915497 0.764923 0.000000
0.931610 0.764923 0.000000
0.945923 0.764923 0.000000
0.958557 0.764923 0.000000
0.969635 0.764923 0.000000
0.979248 0.764923 0.000000
0.987457 0.764923 0.000000
0.994354 0.764923 0.000000
1.000000 0.764923 0.000000
0.000000 0.800598 0.000000
0.056488 0.800598 0.000000
0.103485 0.800598 0.000000
0.149078 0.800598 0.000000
0.194824 0.800598 0.000000
0.241241 0.800598 0.000000
0.288452 0.800598 0.000000
0.336578 0.800598 0.000000
0.385620 0.800598 0.000000
0.435638 0.800598 0.000000
0.486664 0.800598 0.000000
0.537415 0.800598 0.000000
0.584808 0.800598 0.000000
0.628876 0.800598 0.000000
0.669830 0.800598 0.000000
0.707642 0.800598 0.000000
0.742554 0.800598 0.000000
0.774597 0.800598 0.000000
0.803986 0.800598 0.000000
0.830841 0.800598 0.000000
0.855286 0.800598 0.000000
0.877441 0.800598 0.000000
0.897491 0.800598 0.000000
0.915497 0.800598 0.000000
0.931610 0.800598 0.000000
0.945923 0.800598 0.000000
0.958557 0.800598 0.000000
0.969635 0.800598 0.000000
0.979248 0.800598 0.000000
0.987457 0.800598 0.000000
0.994354 0.800598 0.000000
1.000000 0.800598 0.000000
0.000000 0.833282 0.000000
0.056488 0.833282 0.000000
0.103485 0.833282 0.000000
0.149078 0.833282 0.000000
0.194824 0.833282 0.000000
0.241241 0.833282 0.000000
0.288452 0.833282 0.000000
0.336578 0.833282 0.000000
0.385620 0.833282 0.000000
0.435638 0.833282 0.000000
0.486664 0.833282 0.000000
0.537415 0.833282 0.000000
0.584808 0.833282 0.000000
0.628876 0.833282 0.000000
0.669830 0.833282 0.000000
0.707642 0.833282 0.000000
0.742554 0.833282 0.000000
0.774597 0.833282 0.000000
0.803986 0.833282 0.000000
0.830841 0.833282 0.000000
0.855286 0.833282 0.000000
0.877441 0.833282 0.000000
0.897491 0.833282 0.000000
0.915497 0.833282 0.000000
0.931610 0.833282 0.000000
0.945923 0.833282 0.000000
0.958557 0.833282 0.000000
0.969635 0.833282 0.000000
0.979248 0.833282 0.000000
0.987457 0.833282 0.000000
0.994354 0.833282 0.000000
1.000000 0.833282 0.000000
0.000000 0.862915 0.000000
0.056488 0.862915 0.000000
0.103485 0.862915 0.000000
0.149078 0.862915 0.000000
0.194824 0.862915 0.000000
0.241241 0.862915 0.000000
0.288452 0.862915 0.000000
0.336578 0.862915 0.000000
0.385620 0.862915 0.000000
0.435638 0.862915 0.000000
0.486664 0.862915 0.000000
0.537415 0.862915 0.000000
0.584808 0.862915 0.000000
0.628876 0.862915 0.000000
0.669830 0.862915 0.000000
0.707642 0.862915 0.000000
0.742554 0.862915 0.000000
0.774597 0.862915 0.000000
0.803986 0.862915 0.000000
0.830841 0.862915 0.000000
0.855286 0.862915 0.000000
0.877441 0.862915 0.000000
0.897491 0.862915 0.000000
0.915497 0.862915 0.000000
0.931610 0.862915 0.000000
0.945923 0.862915 0.000000
0.958557 0.862915 0.000000
0.969635 0.862915 0.000000
0.979248 0.862915 0.000000
0.987457 0.862915 0.000000
0.994354 0.862915 0.000000
1.000000 0.862915 0.000000
0.000000 0.889587 0.000000
0.056488 0.889587 0.000000
0.103485 0.889587 0.000000
0.149078 0.889587 0.000000
0.194824 0.889587 0.000000
0.241241 0.889587 0.000000
0.288452 0.889587 0.000000
0.336578 0.889587 0.000000
0.385620 0.889587 0.000000
0.435638 0.889587 0.000000
0.486664 0.889587 0.000000
0.537415 0.889587 0.000000
0.584808 0.889587 0.000000
0.628876 0.889587 0.000000
0.669830 0.889587 0.000000
0.707642 0.889587 0.000000
0.742554 0.889587 0.000000
0.774597 0.889587 0.000000
0.803986 0.889587 0.000000
0.830841 0.889587 0.000000
0.855286 0.889587 0.000000
0.877441 0.889587 0.000000
0.897491 0.889587 0.000000
0.915497 0.889587 0.000000
0.931610 0.889587 0.000000
0.945923 0.889587 0.000000
0.958557 0.889587 0.000000
0.969635 0.889587 0.000000
0.979248 0.889587 0.000000
0.987457 0.889587 0.000000
0.994354 0.889587 0.000000
1.000000 0.889587 0.000000
0.000000 0.913330 0.000000
0.056488 0.913330 0.000000
0.103485 0.913330 0.000000
0.149078 0.913330 0.000000
0.194824 0.913330 0.000000
0.241241 0.913330 0.000000
0.288452 0.913330 0.000000
0.336578 0.913330 0.000000
0.385620 0.913330 0.000000
0.435638 0.913330 0.000000
0.486664 0.913330 0.000000
0.537415 0.913330 0.000000
0.584808 0.913330 0.000000
0.628876 0.913330 0.000000
0.669830 0.913330 0.000000
0.707642 0.913330 0.000000
0.742554 0.913330 0.000000
0.774597 0.913330 0.000000
0.803986 0.913330 0.000000
0.830841 0.913330 0.000000
0.855286 0.913330 0.000000
0.877441 0.913330 0.000000
0.897491 0.913330 0.000000
0.915497 0.913330 0.000000
0.931610 0.913330 0.000000
0.945923 0.913330 0.000000
0.958557 0.913330 0.000000
0.969635 0.913330 0.000000
0.979248 0.913330 0.000000
0.987457 0.913330 0.000000
0.994354 0.913330 0.000000
1.000000 0.913330 0.000000
0.000000 0.934265 0.000000
0.056488 0.934265 0.000000
0.103485 0.934265 0.000000
0.149078 0.934265 0.000000
0.194824 0.934265 0.000000
0.241241 0.934265 0.000000
0.288452 0.934265 0.000000
0.336578 0.934265 0.000000
0.385620 0.934265 0.000000
0.435638 0.934265 0.000000
0.486664 0.934265 0.000000
0.537415 0.934265 0.000000
0.584808 0.934265 0.000000
0.628876 0.934265 0.000000
0.669830 0.934265 0.000000
0.707642 0.934265 0.000000
0.742554 0.934265 0.000000
0.774597 0.934265 0.000000
0.803986 0.934265 0.000000
0.830841 0.934265 0.000000
0.855286 0.934265 0.000000
0.877441 0.934265 0.000000
0.897491 0.934265 0.000000
0.915497 0.934265 0.000000
0.931610 0.934265 0.000000
0.945923 0.934265 0.000000
0.958557 0.934265 0.000000
0.969635 0.934265 0.000000
0.979248 0.934265 0.000000
0.987457 0.934265 0.000000
0.994354 0.934265 0.000000
1.000000 0.934265 0.000000
0.000000 0.952484 0.000000
0.056488 0.952484 0.000000
0.103485 0.952484 0.000000
0.149078 0.952484 0.000000
0.194824 0.952484 0.000000
0.241241 0.952484 0.000000
0.288452 0.952484 0.000000
0.336578 0.952484 0.000000
0.385620 0.952484 0.000000
0.435638 0.952484 0.000000
0.486664 0.952484 0.000000
0.537415 0.952484 0.000000
0.584808 0.952484 0.000000
0.628876 0.952484 0.000000
0.669830 0.952484 0.000000
0.707642 0.952484 0.000000
0.742554 0.952484 0.000000
0.774597 0.952484 0.000000
